;FLAVOR:Marlin
;TIME:8085
;Filament used: 5.06672m
;Layer height: 0.2
;MINX:60
;MINY:126.214
;MINZ:0.2
;MAXX:232
;MAXY:186.719
;MAXZ:6.6
;Generated with Cura_SteamEngine 4.5.0
M140 S60
M105
M190 S60
M104 S200
M105
M109 S200
M82 ;absolute extrusion mode
M201 X500.00 Y500.00 Z100.00 E5000.00 ;Setup machine max acceleration
M203 X500.00 Y500.00 Z10.00 E50.00 ;Setup machine max feedrate
M204 P500.00 R1000.00 T500.00 ;Setup Print/Retract/Travel acceleration
M205 X8.00 Y8.00 Z0.40 E5.00 ;Setup Jerk
M220 S100 ;Reset Feedrate
M221 S100 ;Reset Flowrate

G28 ;Home

G92 E0 ;Reset Extruder
G1 Z2.0 F3000 ;Move Z Axis up
G1 X10.1 Y20 Z0.28 F5000.0 ;Move to start position
G1 X10.1 Y200.0 Z0.28 F1500.0 E15 ;Draw the first line
G1 X10.4 Y200.0 Z0.28 F5000.0 ;Move to side a little
G1 X10.4 Y20 Z0.28 F1500.0 E30 ;Draw the second line
G92 E0 ;Reset Extruder
G1 Z2.0 F3000 ;Move Z Axis up

G92 E0
G92 E0
G1 F1500 E-4
;LAYER_COUNT:32
;LAYER:0
M107
G1 F300 Z0.4
G0 F6000 X73.457 Y127.453 Z0.4
;TYPE:SKIRT
G1 F300 Z0.2
G1 F1500 E0
G1 F1200 X74.308 Y127.058 E0.0312
G1 X75.189 Y126.738 E0.06238
G1 X76.095 Y126.493 E0.0936
G1 X77.018 Y126.326 E0.12479
G1 X78.167 Y126.23 E0.16314
G1 X78.489 Y126.22 E0.17386
G1 X78.83 Y126.215 E0.1852
G1 X147.923 Y126.215 E2.48324
G1 X220.293 Y126.214 E4.89028
G1 X220.451 Y126.215 E4.89553
G1 X221.148 Y126.225 E4.91872
G1 X222.084 Y126.279 E4.9499
G1 X223.013 Y126.412 E4.98112
G1 X223.926 Y126.623 E5.01228
G1 X224.819 Y126.912 E5.0435
G1 X225.683 Y127.275 E5.07467
G1 X226.513 Y127.711 E5.10585
G1 X227.304 Y128.216 E5.13707
G1 X228.048 Y128.787 E5.16826
G1 X228.741 Y129.419 E5.19946
G1 X229.378 Y130.108 E5.23066
G1 X229.954 Y130.848 E5.26185
G1 X230.464 Y131.635 E5.29305
G1 X230.906 Y132.462 E5.32423
G1 X231.275 Y133.324 E5.35542
G1 X231.57 Y134.214 E5.38661
G1 X231.788 Y135.126 E5.41779
G1 X231.928 Y136.054 E5.44901
G1 X231.985 Y136.879 E5.47651
G1 X231.995 Y137.198 E5.48713
G1 X232 Y137.543 E5.4986
G1 X231.999 Y138.218 E5.52106
G1 X231.989 Y138.931 E5.54477
G1 X231.936 Y139.868 E5.57599
G1 X231.803 Y140.796 E5.60717
G1 X231.592 Y141.71 E5.63837
G1 X231.421 Y142.269 E5.65781
G1 X231.127 Y143.142 E5.68845
G1 X230.736 Y144.25 E5.72753
G1 X229.96 Y146.662 E5.8118
G1 X229.265 Y149.052 E5.89459
G1 X228.623 Y151.515 E5.97924
G1 X228.393 Y152.512 E6.01327
G1 X228.035 Y153.971 E6.06324
G1 X227.448 Y156.511 E6.14995
G1 X226.961 Y158.944 E6.23247
G1 X226.536 Y161.419 E6.316
G1 X226.181 Y163.912 E6.39975
G1 X225.988 Y165.6 E6.45626
G1 X225.914 Y166.174 E6.47551
G1 X225.82 Y166.774 E6.49571
G1 X225.675 Y167.558 E6.52223
G1 X225.237 Y170.109 E6.60832
G1 X224.881 Y172.612 E6.6924
G1 X224.601 Y175.065 E6.77452
G1 X224.546 Y175.704 E6.79585
G1 X224.439 Y176.785 E6.83198
G1 X224.306 Y177.713 E6.86316
G1 X224.096 Y178.627 E6.89435
G1 X223.808 Y179.52 E6.92556
G1 X223.445 Y180.384 E6.95673
G1 X223.01 Y181.215 E6.98793
G1 X222.506 Y182.006 E7.01912
G1 X221.936 Y182.751 E7.05032
G1 X221.305 Y183.445 E7.08152
G1 X220.617 Y184.082 E7.11271
G1 X219.877 Y184.658 E7.1439
G1 X219.091 Y185.17 E7.1751
G1 X218.264 Y185.612 E7.20628
G1 X217.402 Y185.983 E7.2375
G1 X216.512 Y186.278 E7.26868
G1 X215.6 Y186.497 E7.29988
G1 X214.673 Y186.637 E7.33106
G1 X214.066 Y186.686 E7.35131
G1 X213.76 Y186.702 E7.36151
G1 X213.186 Y186.717 E7.3806
G1 X140.424 Y186.719 E9.80068
G1 X71.706 Y186.718 E12.08625
G1 X71.548 Y186.717 E12.0915
G1 X70.852 Y186.707 E12.11465
G1 X69.916 Y186.653 E12.14584
G1 X68.987 Y186.52 E12.17705
G1 X68.074 Y186.309 E12.20822
G1 X67.181 Y186.02 E12.23944
G1 X66.317 Y185.657 E12.27061
G1 X65.486 Y185.221 E12.30182
G1 X64.696 Y184.715 E12.33302
G1 X63.952 Y184.145 E12.36419
G1 X63.259 Y183.513 E12.39539
G1 X62.622 Y182.824 E12.4266
G1 X62.046 Y182.084 E12.45779
G1 X61.536 Y181.297 E12.48898
G1 X61.094 Y180.47 E12.52017
G1 X60.725 Y179.608 E12.55135
G1 X60.43 Y178.718 E12.58254
G1 X60.212 Y177.805 E12.61376
G1 X60.072 Y176.878 E12.64494
G1 X60.015 Y176.039 E12.67291
G1 X60 Y175.376 E12.69497
G1 X60.001 Y174.689 E12.71782
G1 X60.011 Y173.998 E12.7408
G1 X60.065 Y173.061 E12.77202
G1 X60.193 Y172.157 E12.80239
G1 X60.336 Y171.386 E12.82847
G1 X60.776 Y168.819 E12.91509
G1 X61.13 Y166.329 E12.99874
G1 X61.413 Y163.848 E13.0818
G1 X61.467 Y163.222 E13.10269
G1 X61.574 Y162.145 E13.13869
G1 X61.706 Y161.216 E13.1699
G1 X61.83 Y160.639 E13.18953
G1 X61.971 Y160.058 E13.20941
G1 X62.554 Y157.528 E13.29577
G1 X63.059 Y155.021 E13.38083
G1 X63.475 Y152.585 E13.46302
G1 X63.831 Y150.09 E13.54685
G1 X64.023 Y148.41 E13.60309
G1 X64.096 Y147.84 E13.6222
G1 X64.255 Y146.915 E13.65342
G1 X64.57 Y145.763 E13.69314
G1 X64.873 Y144.859 E13.72485
G1 X65.264 Y143.751 E13.76393
G1 X66.04 Y141.339 E13.8482
G1 X66.74 Y138.931 E13.93161
G1 X67.374 Y136.496 E14.0153
G1 X67.615 Y135.46 E14.05067
G1 X67.826 Y134.601 E14.08009
G1 X68.088 Y133.701 E14.11127
G1 X68.426 Y132.826 E14.14247
G1 X68.837 Y131.983 E14.17366
G1 X69.319 Y131.178 E14.20487
G1 X69.868 Y130.417 E14.23608
G1 X70.479 Y129.706 E14.26726
G1 X71.149 Y129.05 E14.29845
G1 X71.872 Y128.452 E14.32965
G1 X72.643 Y127.919 E14.36083
G1 X73.457 Y127.453 E14.39202
G0 F6000 X73.792 Y127.732
G1 F1200 X74.633 Y127.359 E14.42262
G1 X75.504 Y127.06 E14.45325
G1 X76.397 Y126.837 E14.48387
G1 X77.307 Y126.693 E14.51451
G1 X78.179 Y126.63 E14.54359
G1 X78.501 Y126.62 E14.5543
G1 X78.83 Y126.615 E14.56525
G1 X147.923 Y126.615 E16.86329
G1 X220.293 Y126.614 E19.27033
G1 X220.445 Y126.615 E19.27538
G1 X221.142 Y126.625 E19.29857
G1 X222.061 Y126.678 E19.32918
G1 X222.972 Y126.811 E19.3598
G1 X223.868 Y127.022 E19.39042
G1 X224.743 Y127.31 E19.42106
G1 X225.589 Y127.674 E19.45169
G1 X226.4 Y128.109 E19.4823
G1 X227.171 Y128.612 E19.51292
G1 X227.895 Y129.181 E19.54355
G1 X228.566 Y129.811 E19.57416
G1 X229.181 Y130.496 E19.60478
G1 X229.734 Y131.232 E19.6354
G1 X230.221 Y132.014 E19.66604
G1 X230.638 Y132.834 E19.69663
G1 X230.983 Y133.688 E19.72727
G1 X231.252 Y134.568 E19.75787
G1 X231.444 Y135.469 E19.78851
G1 X231.557 Y136.383 E19.81915
G1 X231.585 Y136.892 E19.8361
G1 X231.595 Y137.211 E19.84672
G1 X231.6 Y137.543 E19.85776
G1 X231.599 Y138.213 E19.88004
G1 X231.589 Y138.926 E19.90376
G1 X231.536 Y139.845 E19.93438
G1 X231.404 Y140.756 E19.96499
G1 X231.193 Y141.652 E19.99561
G1 X231.042 Y142.142 E20.01266
G1 X230.75 Y143.009 E20.04309
G1 X230.354 Y144.131 E20.08267
G1 X229.581 Y146.534 E20.16662
G1 X228.877 Y148.954 E20.25045
G1 X228.234 Y151.421 E20.33524
G1 X228.004 Y152.417 E20.36924
G1 X227.648 Y153.865 E20.41884
G1 X227.061 Y156.408 E20.50564
G1 X226.567 Y158.876 E20.58936
G1 X226.141 Y161.361 E20.67321
G1 X225.781 Y163.881 E20.75788
G1 X225.591 Y165.549 E20.81372
G1 X225.517 Y166.123 E20.83297
G1 X225.426 Y166.701 E20.85243
G1 X225.296 Y167.4 E20.87607
G1 X224.841 Y170.056 E20.9657
G1 X224.486 Y172.542 E21.04922
G1 X224.2 Y175.057 E21.13341
G1 X224.147 Y175.664 E21.15368
G1 X224.04 Y176.745 E21.18981
G1 X223.91 Y177.656 E21.22041
G1 X223.701 Y178.553 E21.25105
G1 X223.415 Y179.428 E21.28167
G1 X223.054 Y180.275 E21.31229
G1 X222.621 Y181.088 E21.34293
G1 X222.119 Y181.86 E21.37355
G1 X221.552 Y182.585 E21.40417
G1 X220.925 Y183.258 E21.43476
G1 X220.241 Y183.875 E21.4654
G1 X219.506 Y184.43 E21.49603
G1 X218.726 Y184.919 E21.52665
G1 X217.907 Y185.338 E21.55725
G1 X217.054 Y185.685 E21.58788
G1 X216.174 Y185.956 E21.6185
G1 X215.274 Y186.15 E21.64912
G1 X214.045 Y186.287 E21.69025
G1 X213.739 Y186.303 E21.70044
G1 X213.186 Y186.317 E21.71884
G1 X140.424 Y186.319 E24.13892
G1 X71.706 Y186.318 E26.42449
G1 X71.554 Y186.317 E26.42954
G1 X70.858 Y186.307 E26.45269
G1 X69.939 Y186.254 E26.48331
G1 X69.028 Y186.121 E26.51393
G1 X68.131 Y185.91 E26.54458
G1 X67.257 Y185.621 E26.5752
G1 X66.411 Y185.258 E26.60582
G1 X65.6 Y184.823 E26.63643
G1 X64.829 Y184.319 E26.66706
G1 X64.105 Y183.751 E26.69767
G1 X63.433 Y183.121 E26.72831
G1 X62.819 Y182.436 E26.7589
G1 X62.266 Y181.7 E26.78952
G1 X61.779 Y180.918 E26.82016
G1 X61.362 Y180.098 E26.85076
G1 X61.017 Y179.244 E26.88139
G1 X60.748 Y178.363 E26.91203
G1 X60.556 Y177.463 E26.94264
G1 X60.443 Y176.549 E26.97327
G1 X60.415 Y176.027 E26.99066
G1 X60.4 Y175.376 E27.01232
G1 X60.401 Y174.695 E27.03497
G1 X60.411 Y174.004 E27.05795
G1 X60.464 Y173.085 E27.08857
G1 X60.587 Y172.23 E27.1173
G1 X60.718 Y171.522 E27.14125
G1 X61.171 Y168.877 E27.2305
G1 X61.525 Y166.394 E27.31392
G1 X61.81 Y163.89 E27.39774
G1 X61.865 Y163.261 E27.41874
G1 X61.972 Y162.184 E27.45474
G1 X62.103 Y161.273 E27.48535
G1 X62.219 Y160.734 E27.50369
G1 X62.357 Y160.166 E27.52313
G1 X62.942 Y157.625 E27.60985
G1 X63.451 Y155.102 E27.69546
G1 X63.873 Y152.631 E27.77884
G1 X64.23 Y150.125 E27.86303
G1 X64.42 Y148.46 E27.91876
G1 X64.493 Y147.89 E27.93788
G1 X64.649 Y146.983 E27.96849
G1 X64.95 Y145.889 E28.00623
G1 X65.25 Y144.992 E28.03769
G1 X65.646 Y143.87 E28.07726
G1 X66.419 Y141.467 E28.16122
G1 X67.123 Y139.047 E28.24504
G1 X67.765 Y136.582 E28.32976
G1 X68.003 Y135.555 E28.36483
G1 X68.214 Y134.696 E28.39425
G1 X68.472 Y133.813 E28.42484
G1 X68.806 Y132.955 E28.45547
G1 X69.213 Y132.129 E28.48609
G1 X69.691 Y131.342 E28.51672
G1 X70.234 Y130.599 E28.54733
G1 X70.84 Y129.906 E28.57795
G1 X71.504 Y129.268 E28.60857
G1 X72.221 Y128.69 E28.63921
G1 X72.986 Y128.177 E28.66984
G1 X73.792 Y127.732 E28.70046
G0 F6000 X74.124 Y128.015
G1 F1200 X74.956 Y127.663 E28.73051
G1 X75.816 Y127.387 E28.76055
G1 X76.697 Y127.187 E28.7906
G1 X77.592 Y127.066 E28.82064
G1 X78.191 Y127.03 E28.8406
G1 X78.83 Y127.015 E28.86185
G1 X147.923 Y127.015 E31.1599
G1 X220.293 Y127.014 E33.56693
G1 X220.439 Y127.015 E33.57179
G1 X221.136 Y127.025 E33.59497
G1 X222.038 Y127.078 E33.62503
G1 X222.931 Y127.21 E33.65505
G1 X223.809 Y127.421 E33.68508
G1 X224.665 Y127.709 E33.71512
G1 X225.493 Y128.072 E33.74519
G1 X226.284 Y128.506 E33.7752
G1 X227.035 Y129.008 E33.80525
G1 X227.738 Y129.575 E33.83529
G1 X228.388 Y130.202 E33.86532
G1 X228.98 Y130.884 E33.89536
G1 X229.51 Y131.615 E33.92539
G1 X229.972 Y132.391 E33.95543
G1 X230.365 Y133.204 E33.98546
G1 X230.683 Y134.049 E34.01549
G1 X230.926 Y134.919 E34.04554
G1 X231.091 Y135.807 E34.07558
G1 X231.185 Y136.904 E34.1122
G1 X231.195 Y137.223 E34.12281
G1 X231.2 Y137.543 E34.13346
G1 X231.199 Y138.207 E34.15554
G1 X231.189 Y138.92 E34.17926
G1 X231.136 Y139.822 E34.20931
G1 X231.004 Y140.715 E34.23934
G1 X230.662 Y142.015 E34.28404
G1 X230.373 Y142.876 E34.31425
G1 X229.971 Y144.013 E34.35436
G1 X229.199 Y146.415 E34.43828
G1 X228.492 Y148.846 E34.52248
G1 X227.843 Y151.336 E34.60807
G1 X227.616 Y152.321 E34.64169
G1 X227.244 Y153.836 E34.69357
G1 X226.673 Y156.311 E34.77806
G1 X226.176 Y158.795 E34.86231
G1 X225.743 Y161.314 E34.94732
G1 X225.387 Y163.812 E35.03125
G1 X225.194 Y165.498 E35.08769
G1 X225.12 Y166.072 E35.10694
G1 X225.033 Y166.628 E35.12565
G1 X224.886 Y167.42 E35.15245
G1 X224.449 Y169.969 E35.23846
G1 X224.092 Y172.477 E35.32272
G1 X223.799 Y175.046 E35.40872
G1 X223.749 Y175.625 E35.42805
G1 X223.642 Y176.706 E35.46418
G1 X223.514 Y177.6 E35.49422
G1 X223.307 Y178.479 E35.52425
G1 X223.022 Y179.336 E35.55429
G1 X222.663 Y180.165 E35.58434
G1 X222.233 Y180.958 E35.61434
G1 X221.733 Y181.711 E35.64441
G1 X221.17 Y182.416 E35.67441
G1 X220.545 Y183.069 E35.70448
G1 X219.866 Y183.664 E35.7345
G1 X219.137 Y184.197 E35.76454
G1 X218.363 Y184.663 E35.79459
G1 X217.551 Y185.058 E35.82462
G1 X216.708 Y185.381 E35.85465
G1 X215.839 Y185.627 E35.88469
G1 X214.952 Y185.796 E35.91472
G1 X214.025 Y185.887 E35.9457
G1 X213.719 Y185.903 E35.95589
G1 X213.186 Y185.917 E35.97363
G1 X140.424 Y185.919 E38.3937
G1 X71.706 Y185.918 E40.67927
G1 X71.559 Y185.917 E40.68416
G1 X70.863 Y185.907 E40.70731
G1 X69.962 Y185.854 E40.73733
G1 X69.069 Y185.722 E40.76735
G1 X68.19 Y185.511 E40.79742
G1 X67.334 Y185.223 E40.82746
G1 X66.507 Y184.86 E40.8575
G1 X65.715 Y184.426 E40.88754
G1 X64.965 Y183.924 E40.91755
G1 X64.262 Y183.357 E40.94759
G1 X63.612 Y182.73 E40.97763
G1 X63.02 Y182.048 E41.00767
G1 X62.49 Y181.316 E41.03773
G1 X62.028 Y180.541 E41.06773
G1 X61.635 Y179.727 E41.0978
G1 X61.317 Y178.882 E41.12783
G1 X61.074 Y178.012 E41.15787
G1 X60.909 Y177.125 E41.18788
G1 X60.815 Y176.015 E41.22493
G1 X60.8 Y175.376 E41.24619
G1 X60.801 Y174.7 E41.26867
G1 X60.811 Y174.009 E41.29166
G1 X60.864 Y173.108 E41.32168
G1 X60.98 Y172.303 E41.34873
G1 X61.124 Y171.523 E41.37511
G1 X61.564 Y168.959 E41.46164
G1 X61.924 Y166.429 E41.54663
G1 X62.208 Y163.936 E41.63008
G1 X62.263 Y163.301 E41.65128
G1 X62.37 Y162.224 E41.68728
G1 X62.499 Y161.33 E41.71732
G1 X62.607 Y160.828 E41.7344
G1 X62.746 Y160.254 E41.75405
G1 X63.337 Y157.688 E41.84163
G1 X63.844 Y155.177 E41.92683
G1 X64.269 Y152.689 E42.01078
G1 X64.625 Y150.189 E42.09477
G1 X64.817 Y148.511 E42.15094
G1 X64.89 Y147.941 E42.17005
G1 X65.044 Y147.051 E42.2001
G1 X65.329 Y146.016 E42.2358
G1 X65.627 Y145.125 E42.26705
G1 X66.029 Y143.988 E42.30716
G1 X66.801 Y141.586 E42.39108
G1 X67.508 Y139.155 E42.47528
G1 X68.156 Y136.667 E42.56079
G1 X68.391 Y135.651 E42.59548
G1 X68.602 Y134.792 E42.6249
G1 X68.857 Y133.925 E42.65496
G1 X69.186 Y133.084 E42.68499
G1 X69.589 Y132.276 E42.71502
G1 X70.062 Y131.507 E42.74505
G1 X70.601 Y130.782 E42.7751
G1 X71.202 Y130.108 E42.80513
G1 X71.86 Y129.489 E42.83518
G1 X72.57 Y128.932 E42.86519
G1 X73.327 Y128.439 E42.89524
G1 X74.124 Y128.015 E42.92527
G1 F1500 E38.92527
G1 F300 Z0.4
;MESH:HerPo (11).stl(2)
G0 F6000 X147.924 Y138.187 Z0.4
;TYPE:WALL-INNER
G1 F300 Z0.2
G1 F1500 E42.92527
G1 F1200 X79.1 Y138.186 E45.21436
G1 X79.1 Y137.815 E45.2267
G1 X147.923 Y137.815 E47.358
G1 X220.4 Y137.814 E49.76859
G1 X220.4 Y138.186 E49.78097
G1 X147.924 Y138.187 E52.02841
G0 F6000 X147.924 Y138.587
;TYPE:WALL-OUTER
G1 F1200 X78.7 Y138.586 E54.33081
G1 X78.7 Y137.415 E54.36975
G1 X147.923 Y137.415 E56.67212
G1 X220.8 Y137.414 E59.09602
G1 X220.8 Y138.586 E59.135
G1 X147.924 Y138.587 E61.55886
G0 F6000 X147.924 Y138.147
G1 F1500 E57.55886
G1 F300 Z0.4
;MESH:HerPo (11).stl
G0 F6000 X144.424 Y150.187 Z0.4
;TYPE:WALL-INNER
G1 F300 Z0.2
G1 F1500 E61.55886
G1 F1200 X75.6 Y150.186 E63.84796
G1 X75.6 Y149.815 E63.8603
G1 X144.423 Y149.815 E65.9916
G1 X148.076 Y149.814 E66.1131
G1 X216.9 Y149.815 E68.40219
G1 X216.9 Y150.186 E68.41453
G1 X148.077 Y150.186 E70.54583
G1 X144.424 Y150.187 E70.65911
G0 F6000 X144.424 Y150.587
;TYPE:WALL-OUTER
G1 F1200 X75.2 Y150.586 E72.96151
G1 X75.2 Y149.415 E73.00045
G1 X148.076 Y149.414 E75.42432
G1 X217.3 Y149.415 E77.72672
G1 X217.3 Y150.586 E77.76567
G1 X144.424 Y150.587 E80.18953
G0 F6000 X144.424 Y150.147
G1 F1500 E76.18953
G1 F300 Z0.4
;MESH:HerPo (11).stl(3)
G0 F6000 X141.936 Y164.187 Z0.4
;TYPE:WALL-INNER
G1 F300 Z0.2
G1 F1500 E80.18953
G1 F1200 X73.112 Y164.186 E82.47863
G1 X73.112 Y163.815 E82.49097
G1 X141.935 Y163.815 E84.62226
G1 X214.412 Y163.814 E87.03286
G1 X214.412 Y164.186 E87.04523
G1 X141.936 Y164.187 E89.29267
G0 F6000 X141.936 Y164.587
;TYPE:WALL-OUTER
G1 F1200 X72.712 Y164.586 E91.59507
G1 X72.712 Y163.415 E91.63402
G1 X141.935 Y163.415 E93.93638
G1 X214.812 Y163.414 E96.36028
G1 X214.812 Y164.586 E96.39926
G1 X141.936 Y164.587 E98.82313
G0 F6000 X141.936 Y164.147
G1 F1500 E94.82313
G1 F300 Z0.4
;MESH:HerPo (11).stl(1)
G0 F6000 X140.424 Y175.119 Z0.4
;TYPE:WALL-INNER
G1 F300 Z0.2
G1 F1500 E98.82313
G1 F1200 X71.6 Y175.118 E101.11222
G1 X71.6 Y174.747 E101.12456
G1 X140.423 Y174.747 E103.25586
G1 X144.076 Y174.746 E103.37736
G1 X212.9 Y174.747 E105.66645
G1 X212.9 Y175.118 E105.67879
G1 X144.077 Y175.118 E107.81009
G1 X140.424 Y175.119 E107.92337
G0 F6000 X140.424 Y175.519
;TYPE:WALL-OUTER
G1 F1200 X71.2 Y175.518 E110.22577
G1 X71.2 Y174.347 E110.26472
G1 X144.076 Y174.346 E112.68858
G1 X213.3 Y174.347 E114.99098
G1 X213.3 Y175.518 E115.02993
G1 X140.424 Y175.519 E117.4538
G0 F6000 X140.424 Y175.079
G1 F1500 E113.4538
G1 F300 Z0.4
;MESH:NONMESH
G0 F6000 X165.872 Y138.356 Z0.4
;TIME_ELAPSED:187.506903
;LAYER:1
M140 S60
M106 S85
;TYPE:WALL-INNER
;MESH:HerPo (11).stl(2)
G1 F300 Z0.4
G1 F1500 E117.4538
G1 F1350 X79.699 Y138.357 E120.31992
G1 X79.5 Y138.357 E120.32654
G1 X79.5 Y138.158 E120.33082
G1 X79.5 Y137.645 E120.34788
