;FLAVOR:Marlin
;TIME:21080
;Filament used: 15.7883m
;Layer height: 0.2
;MINX:34.525
;MINY:69.4
;MINZ:0.2
;MAXX:265.475
;MAXY:230.6
;MAXZ:3.2
;POSTPROCESSED
;Generated with Cura_SteamEngine 4.5.0
M82 ;absolute extrusion mode
G90
M82
M106 S0
M104 S230 ;Start heating extruder
M140 S90 ;Start heating bed
M109 S230 ;Wait for extruder to reach temp before proceeding
M190 S90 ;Wait for bed to reach temp before proceeding


G28 ;Home
G29


G92 E0
G1 E-10.0000 F6000
G1 X10.1 Y20 Z0.28 F5000.0 ;Move to start position
G1 X10.1 Y200.0 Z0.28 F1500.0 E15 ;Draw the first line
G1 X10.4 Y200.0 Z0.28 F5000.0 ;Move to side a little
G1 X10.4 Y20 Z0.28 F1500.0 E30 ;Draw the second line
G92 E0 ;Reset Extruder
G1 Z0.750 F1002
G92 E0
G92 E0
G1 F2400 E-8
;LAYER_COUNT:15
;LAYER:0
M107
G1 F300 Z0.4
G0 F3000 X43.439 Y71.7 Z0.4
;TYPE:SKIRT
G1 F300 Z0.2
G1 F2400 E0
G1 F1500 X44.111 Y71.337 E0.0254
G1 X44.967 Y70.928 E0.05696
G1 X45.683 Y70.629 E0.08276
G1 X46.595 Y70.3 E0.11501
G1 X47.314 Y70.079 E0.14003
G1 X48.243 Y69.842 E0.17192
G1 X48.995 Y69.689 E0.19744
G1 X49.952 Y69.543 E0.22964
G1 X50.721 Y69.465 E0.25535
G1 X51.696 Y69.414 E0.28782
G1 X52.103 Y69.403 E0.30136
G1 X241.349 Y69.4 E6.59571
G1 X247.862 Y69.4 E6.81233
G1 X248.237 Y69.409 E6.82481
G1 X249.173 Y69.454 E6.85598
G1 X249.911 Y69.525 E6.88064
G1 X250.868 Y69.663 E6.9128
G1 X251.627 Y69.811 E6.93852
G1 X252.541 Y70.037 E6.96983
G1 X253.268 Y70.255 E6.99507
G1 X254.199 Y70.584 E7.02792
G1 X254.909 Y70.875 E7.05344
G1 X255.767 Y71.277 E7.08495
G1 X256.439 Y71.632 E7.11023
G1 X257.263 Y72.121 E7.1421
G1 X257.926 Y72.562 E7.16858
G1 X258.764 Y73.183 E7.20327
G1 X259.348 Y73.661 E7.22837
G1 X260.029 Y74.276 E7.25889
G1 X260.58 Y74.827 E7.28481
G1 X261.219 Y75.532 E7.31646
G1 X261.702 Y76.12 E7.34177
G1 X262.273 Y76.889 E7.37362
G1 X262.689 Y77.508 E7.39843
G1 X263.178 Y78.318 E7.4299
G1 X263.538 Y78.986 E7.45514
G1 X263.947 Y79.842 E7.48669
G1 X264.246 Y80.558 E7.5125
G1 X264.575 Y81.47 E7.54475
G1 X264.796 Y82.189 E7.56976
G1 X265.033 Y83.118 E7.60165
G1 X265.185 Y83.867 E7.62707
G1 X265.331 Y84.822 E7.6592
G1 X265.41 Y85.594 E7.68501
G1 X265.461 Y86.57 E7.71752
G1 X265.472 Y86.977 E7.73106
G1 X265.475 Y208.799 E11.78288
G1 X265.475 Y212.987 E11.92217
G1 X265.466 Y213.362 E11.93465
G1 X265.421 Y214.297 E11.96578
G1 X265.35 Y215.034 E11.99041
G1 X265.212 Y215.992 E12.0226
G1 X265.065 Y216.748 E12.04822
G1 X264.841 Y217.656 E12.07932
G1 X264.623 Y218.386 E12.10466
G1 X264.292 Y219.323 E12.13771
G1 X264 Y220.034 E12.16328
G1 X263.598 Y220.892 E12.19479
G1 X263.243 Y221.564 E12.22007
G1 X262.754 Y222.388 E12.25194
G1 X262.313 Y223.051 E12.27842
G1 X261.692 Y223.889 E12.31311
G1 X261.214 Y224.473 E12.33822
G1 X260.599 Y225.154 E12.36873
G1 X260.048 Y225.705 E12.39465
G1 X259.343 Y226.344 E12.4263
G1 X258.755 Y226.828 E12.45163
G1 X257.99 Y227.396 E12.48332
G1 X257.375 Y227.808 E12.50794
G1 X256.561 Y228.3 E12.53958
G1 X255.889 Y228.663 E12.56498
G1 X255.033 Y229.072 E12.59653
G1 X254.317 Y229.371 E12.62234
G1 X253.405 Y229.7 E12.65459
G1 X252.686 Y229.921 E12.6796
G1 X251.757 Y230.158 E12.71149
G1 X251.005 Y230.311 E12.73702
G1 X250.048 Y230.457 E12.76922
G1 X249.279 Y230.535 E12.79492
G1 X248.304 Y230.586 E12.8274
G1 X247.897 Y230.597 E12.84094
G1 X58.651 Y230.6 E19.13529
G1 X52.138 Y230.6 E19.35191
G1 X51.763 Y230.591 E19.36439
G1 X50.828 Y230.546 E19.39552
G1 X50.091 Y230.475 E19.42015
G1 X49.133 Y230.337 E19.45234
G1 X48.373 Y230.189 E19.47809
G1 X47.459 Y229.963 E19.50941
G1 X46.732 Y229.745 E19.53465
G1 X45.801 Y229.416 E19.56749
G1 X45.09 Y229.125 E19.59304
G1 X44.23 Y228.722 E19.62463
G1 X43.558 Y228.366 E19.64993
G1 X42.736 Y227.878 E19.68172
G1 X42.073 Y227.437 E19.7082
G1 X41.234 Y226.815 E19.74294
G1 X40.651 Y226.337 E19.76802
G1 X39.969 Y225.721 E19.79858
G1 X39.417 Y225.171 E19.8245
G1 X38.779 Y224.467 E19.8561
G1 X38.294 Y223.875 E19.88155
G1 X37.723 Y223.105 E19.91344
G1 X37.311 Y222.491 E19.93803
G1 X36.823 Y221.683 E19.96943
G1 X36.462 Y221.014 E19.99471
G1 X36.052 Y220.156 E20.02634
G1 X35.752 Y219.438 E20.05222
G1 X35.424 Y218.528 E20.08439
G1 X35.204 Y217.811 E20.10934
G1 X34.967 Y216.882 E20.14123
G1 X34.814 Y216.13 E20.16675
G1 X34.668 Y215.173 E20.19895
G1 X34.59 Y214.405 E20.22462
G1 X34.539 Y213.431 E20.25706
G1 X34.528 Y213.023 E20.27064
G1 X34.525 Y91.201 E24.32245
G1 X34.525 Y87.013 E24.46175
G1 X34.534 Y86.638 E24.47422
G1 X34.579 Y85.703 E24.50536
G1 X34.65 Y84.966 E24.52998
G1 X34.788 Y84.008 E24.56218
G1 X34.935 Y83.252 E24.58779
G1 X35.159 Y82.344 E24.6189
G1 X35.375 Y81.622 E24.64396
G1 X35.707 Y80.679 E24.67721
G1 X36.007 Y79.947 E24.70353
G1 X36.409 Y79.093 E24.73492
G1 X36.759 Y78.433 E24.75977
G1 X37.247 Y77.611 E24.79156
G1 X37.687 Y76.949 E24.818
G1 X38.308 Y76.111 E24.85269
G1 X38.786 Y75.527 E24.87779
G1 X39.401 Y74.846 E24.90831
G1 X39.952 Y74.295 E24.93423
G1 X40.657 Y73.656 E24.96588
G1 X41.245 Y73.172 E24.99121
G1 X42.01 Y72.604 E25.0229
G1 X42.625 Y72.192 E25.04752
G1 X43.439 Y71.7 E25.07915
G0 F3000 X43.646 Y72.042
G1 F1500 X44.284 Y71.698 E25.10326
G1 X45.14 Y71.289 E25.13481
G1 X45.819 Y71.005 E25.15929
G1 X46.731 Y70.676 E25.19154
G1 X47.413 Y70.467 E25.21526
G1 X48.342 Y70.23 E25.24715
G1 X49.055 Y70.085 E25.27135
G1 X50.012 Y69.939 E25.30355
G1 X50.741 Y69.864 E25.32793
G1 X51.716 Y69.813 E25.3604
G1 X52.103 Y69.803 E25.37327
G1 X241.349 Y69.8 E31.66762
G1 X247.862 Y69.8 E31.88424
G1 X248.217 Y69.809 E31.89606
G1 X249.153 Y69.854 E31.92722
G1 X249.854 Y69.921 E31.95065
G1 X250.811 Y70.059 E31.9828
G1 X251.531 Y70.199 E32.0072
G1 X252.445 Y70.425 E32.03852
G1 X253.135 Y70.632 E32.06248
G1 X254.066 Y70.961 E32.09532
G1 X254.74 Y71.237 E32.11954
G1 X255.598 Y71.639 E32.15106
G1 X256.235 Y71.976 E32.17502
G1 X257.059 Y72.465 E32.20689
G1 X257.688 Y72.884 E32.23203
G1 X258.526 Y73.505 E32.26672
G1 X259.08 Y73.958 E32.29052
G1 X259.761 Y74.573 E32.32104
G1 X260.284 Y75.095 E32.34562
G1 X260.923 Y75.8 E32.37727
G1 X261.381 Y76.358 E32.40128
G1 X261.952 Y77.127 E32.43313
G1 X262.346 Y77.714 E32.45665
G1 X262.835 Y78.524 E32.48812
G1 X263.177 Y79.159 E32.51211
G1 X263.586 Y80.015 E32.54366
G1 X263.87 Y80.694 E32.56814
G1 X264.199 Y81.606 E32.60039
G1 X264.408 Y82.288 E32.62411
G1 X264.645 Y83.217 E32.656
G1 X264.79 Y83.928 E32.68013
G1 X264.936 Y84.883 E32.71227
G1 X265.011 Y85.615 E32.73674
G1 X265.062 Y86.591 E32.76925
G1 X265.072 Y86.977 E32.78209
G1 X265.075 Y208.799 E36.8339
G1 X265.075 Y212.987 E36.9732
G1 X265.066 Y213.343 E36.98504
G1 X265.021 Y214.278 E37.01618
G1 X264.954 Y214.977 E37.03953
G1 X264.816 Y215.935 E37.07172
G1 X264.677 Y216.652 E37.09602
G1 X264.453 Y217.56 E37.12712
G1 X264.245 Y218.253 E37.15119
G1 X263.914 Y219.19 E37.18424
G1 X263.638 Y219.865 E37.20849
G1 X263.236 Y220.723 E37.24001
G1 X262.899 Y221.36 E37.26398
G1 X262.41 Y222.184 E37.29585
G1 X261.991 Y222.813 E37.32098
G1 X261.37 Y223.651 E37.35567
G1 X260.917 Y224.205 E37.37948
G1 X260.302 Y224.886 E37.40999
G1 X259.78 Y225.409 E37.43457
G1 X259.075 Y226.048 E37.46622
G1 X258.516 Y226.506 E37.49025
G1 X257.751 Y227.074 E37.52195
G1 X257.168 Y227.466 E37.54531
G1 X256.354 Y227.958 E37.57695
G1 X255.716 Y228.302 E37.60105
G1 X254.86 Y228.711 E37.63261
G1 X254.181 Y228.995 E37.65709
G1 X253.269 Y229.324 E37.68933
G1 X252.587 Y229.533 E37.71306
G1 X251.658 Y229.77 E37.74495
G1 X250.945 Y229.915 E37.76915
G1 X249.988 Y230.061 E37.80135
G1 X249.259 Y230.136 E37.82572
G1 X248.284 Y230.187 E37.85819
G1 X247.897 Y230.197 E37.87107
G1 X58.651 Y230.2 E44.16542
G1 X52.138 Y230.2 E44.38204
G1 X51.782 Y230.191 E44.39388
G1 X50.847 Y230.146 E44.42502
G1 X50.148 Y230.079 E44.44837
G1 X49.19 Y229.941 E44.48057
G1 X48.469 Y229.801 E44.50499
G1 X47.555 Y229.575 E44.53631
G1 X46.865 Y229.368 E44.56027
G1 X45.934 Y229.039 E44.59311
G1 X45.26 Y228.763 E44.61734
G1 X44.4 Y228.36 E44.64892
G1 X43.762 Y228.022 E44.67294
G1 X42.94 Y227.534 E44.70473
G1 X42.311 Y227.116 E44.72985
G1 X41.472 Y226.494 E44.76459
G1 X40.919 Y226.041 E44.78836
G1 X40.237 Y225.425 E44.81893
G1 X39.714 Y224.902 E44.84353
G1 X39.076 Y224.198 E44.87513
G1 X38.615 Y223.637 E44.89928
G1 X38.044 Y222.867 E44.93117
G1 X37.654 Y222.285 E44.95447
G1 X37.166 Y221.477 E44.98586
G1 X36.823 Y220.842 E45.00987
G1 X36.413 Y219.984 E45.0415
G1 X36.128 Y219.302 E45.06608
G1 X35.8 Y218.392 E45.09825
G1 X35.592 Y217.712 E45.1219
G1 X35.355 Y216.783 E45.15379
G1 X35.21 Y216.07 E45.17799
G1 X35.064 Y215.113 E45.21019
G1 X34.989 Y214.384 E45.23456
G1 X34.938 Y213.41 E45.267
G1 X34.928 Y213.023 E45.27988
G1 X34.925 Y91.201 E49.3317
G1 X34.925 Y87.013 E49.47099
G1 X34.934 Y86.657 E49.48283
G1 X34.979 Y85.722 E49.51397
G1 X35.046 Y85.023 E49.53732
G1 X35.184 Y84.065 E49.56952
G1 X35.323 Y83.348 E49.59381
G1 X35.547 Y82.44 E49.62491
G1 X35.752 Y81.755 E49.64869
G1 X36.084 Y80.812 E49.68195
G1 X36.369 Y80.117 E49.70693
G1 X36.771 Y79.263 E49.73832
G1 X37.103 Y78.637 E49.76189
G1 X37.591 Y77.815 E49.79369
G1 X38.009 Y77.187 E49.81878
G1 X38.63 Y76.349 E49.85347
G1 X39.083 Y75.795 E49.87727
G1 X39.698 Y75.114 E49.90779
G1 X40.22 Y74.591 E49.93237
G1 X40.925 Y73.952 E49.96401
G1 X41.484 Y73.494 E49.98805
G1 X42.249 Y72.926 E50.01974
G1 X42.832 Y72.534 E50.04311
G1 X43.646 Y72.042 E50.07474
G0 F3000 X43.853 Y72.384
G1 F1500 X44.456 Y72.059 E50.09752
G1 X45.312 Y71.65 E50.12908
G1 X45.955 Y71.381 E50.15226
G1 X46.867 Y71.052 E50.18451
G1 X47.512 Y70.854 E50.20695
G1 X48.441 Y70.617 E50.23884
G1 X49.115 Y70.48 E50.26171
G1 X50.072 Y70.334 E50.29391
G1 X50.762 Y70.264 E50.31698
G1 X51.737 Y70.213 E50.34945
G1 X52.103 Y70.203 E50.36163
G1 X241.349 Y70.2 E56.65598
G1 X247.862 Y70.2 E56.8726
G1 X248.198 Y70.208 E56.88378
G1 X249.134 Y70.253 E56.91495
G1 X249.797 Y70.317 E56.9371
G1 X250.754 Y70.455 E56.96926
G1 X251.435 Y70.588 E56.99234
G1 X252.349 Y70.814 E57.02365
G1 X253.001 Y71.009 E57.04629
G1 X253.932 Y71.338 E57.07913
G1 X254.57 Y71.599 E57.10206
G1 X255.428 Y72.001 E57.13357
G1 X256.03 Y72.32 E57.15623
G1 X256.854 Y72.809 E57.1881
G1 X257.45 Y73.205 E57.2119
G1 X258.288 Y73.826 E57.24659
G1 X258.812 Y74.255 E57.26911
G1 X259.493 Y74.87 E57.29963
G1 X259.988 Y75.364 E57.32289
G1 X260.627 Y76.069 E57.35454
G1 X261.06 Y76.597 E57.37725
G1 X261.631 Y77.366 E57.40911
G1 X262.004 Y77.921 E57.43135
G1 X262.493 Y78.731 E57.46282
G1 X262.816 Y79.331 E57.48548
G1 X263.225 Y80.187 E57.51704
G1 X263.494 Y80.83 E57.54022
G1 X263.823 Y81.742 E57.57246
G1 X264.021 Y82.387 E57.59491
G1 X264.258 Y83.316 E57.62679
G1 X264.395 Y83.988 E57.6496
G1 X264.541 Y84.943 E57.68174
G1 X264.611 Y85.636 E57.7049
G1 X264.662 Y86.612 E57.73741
G1 X264.672 Y86.977 E57.74955
G1 X264.675 Y208.799 E61.80137
G1 X264.675 Y212.987 E61.94066
G1 X264.667 Y213.324 E61.95188
G1 X264.622 Y214.259 E61.98301
G1 X264.558 Y214.92 E62.0051
G1 X264.42 Y215.878 E62.03729
G1 X264.288 Y216.557 E62.0603
G1 X264.064 Y217.465 E62.0914
G1 X263.868 Y218.12 E62.11414
G1 X263.537 Y219.057 E62.14719
G1 X263.276 Y219.695 E62.17012
G1 X262.874 Y220.553 E62.20163
G1 X262.555 Y221.155 E62.22429
G1 X262.066 Y221.979 E62.25616
G1 X261.67 Y222.575 E62.27996
G1 X261.049 Y223.413 E62.31465
G1 X260.62 Y223.937 E62.33718
G1 X260.005 Y224.618 E62.3677
G1 X259.511 Y225.113 E62.39096
G1 X258.806 Y225.752 E62.4226
G1 X258.278 Y226.185 E62.44532
G1 X257.513 Y226.753 E62.47701
G1 X256.961 Y227.124 E62.49913
G1 X256.147 Y227.616 E62.53076
G1 X255.544 Y227.941 E62.55355
G1 X254.688 Y228.35 E62.5851
G1 X254.045 Y228.619 E62.60828
G1 X253.133 Y228.948 E62.64053
G1 X252.488 Y229.146 E62.66297
G1 X251.559 Y229.383 E62.69486
G1 X250.885 Y229.52 E62.71773
G1 X249.928 Y229.666 E62.74993
G1 X249.238 Y229.736 E62.773
G1 X248.263 Y229.787 E62.80547
G1 X247.897 Y229.797 E62.81765
G1 X58.651 Y229.8 E69.112
G1 X52.138 Y229.8 E69.32862
G1 X51.801 Y229.792 E69.33983
G1 X50.866 Y229.747 E69.37097
G1 X50.205 Y229.683 E69.39305
G1 X49.247 Y229.545 E69.42525
G1 X48.565 Y229.412 E69.44836
G1 X47.651 Y229.186 E69.47967
G1 X46.999 Y228.991 E69.50231
G1 X46.068 Y228.662 E69.53515
G1 X45.43 Y228.401 E69.55808
G1 X44.57 Y227.998 E69.58966
G1 X43.967 Y227.678 E69.61237
G1 X43.145 Y227.19 E69.64416
G1 X42.549 Y226.794 E69.66796
G1 X41.71 Y226.172 E69.7027
G1 X41.187 Y225.744 E69.72518
G1 X40.505 Y225.128 E69.75575
G1 X40.01 Y224.634 E69.77901
G1 X39.372 Y223.93 E69.81061
G1 X38.936 Y223.399 E69.83346
G1 X38.365 Y222.629 E69.86534
G1 X37.996 Y222.078 E69.8874
G1 X37.508 Y221.27 E69.91879
G1 X37.184 Y220.669 E69.9415
G1 X36.774 Y219.811 E69.97313
G1 X36.505 Y219.167 E69.99634
G1 X36.177 Y218.257 E70.02852
G1 X35.979 Y217.613 E70.05092
G1 X35.742 Y216.684 E70.08281
G1 X35.605 Y216.01 E70.10569
G1 X35.459 Y215.053 E70.13789
G1 X35.389 Y214.363 E70.16095
G1 X35.338 Y213.389 E70.19339
G1 X35.328 Y213.023 E70.20557
G1 X35.325 Y91.201 E74.25739
G1 X35.325 Y87.013 E74.39668
G1 X35.333 Y86.676 E74.40789
G1 X35.378 Y85.741 E74.43903
G1 X35.442 Y85.08 E74.46111
G1 X35.58 Y84.122 E74.49331
G1 X35.712 Y83.443 E74.51631
G1 X35.936 Y82.535 E74.54742
G1 X36.129 Y81.887 E74.56991
G1 X36.461 Y80.944 E74.60316
G1 X36.731 Y80.288 E74.62675
G1 X37.133 Y79.434 E74.65815
G1 X37.447 Y78.842 E74.68043
G1 X37.935 Y78.02 E74.71223
G1 X38.33 Y77.425 E74.73598
G1 X38.951 Y76.587 E74.77067
G1 X39.38 Y76.063 E74.7932
G1 X39.995 Y75.382 E74.82372
G1 X40.489 Y74.887 E74.84698
G1 X41.194 Y74.248 E74.87862
G1 X41.722 Y73.815 E74.90134
G1 X42.487 Y73.247 E74.93303
G1 X43.039 Y72.876 E74.95515
G1 X43.853 Y72.384 E74.98678
G0 F3000 X44.06 Y72.727
G1 F1500 X44.629 Y72.42 E75.00829
G1 X45.485 Y72.011 E75.03984
G1 X46.09 Y71.758 E75.06165
G1 X47.002 Y71.429 E75.0939
G1 X47.611 Y71.242 E75.11509
G1 X48.54 Y71.005 E75.14697
G1 X49.176 Y70.875 E75.16857
G1 X50.133 Y70.729 E75.20076
G1 X50.783 Y70.663 E75.22249
G1 X51.758 Y70.612 E75.25497
G1 X52.103 Y70.603 E75.26645
G1 X241.349 Y70.6 E81.56079
G1 X247.862 Y70.6 E81.77742
G1 X248.179 Y70.608 E81.78796
G1 X249.115 Y70.653 E81.81913
G1 X249.74 Y70.713 E81.84001
G1 X250.697 Y70.851 E81.87217
G1 X251.339 Y70.976 E81.89393
G1 X252.253 Y71.202 E81.92524
G1 X252.868 Y71.386 E81.94659
G1 X253.799 Y71.715 E81.97943
G1 X254.4 Y71.961 E82.00103
G1 X255.258 Y72.363 E82.03255
G1 X255.826 Y72.664 E82.05393
G1 X256.65 Y73.153 E82.0858
G1 X257.212 Y73.526 E82.10823
G1 X258.05 Y74.147 E82.14292
G1 X258.544 Y74.552 E82.16417
G1 X259.225 Y75.167 E82.19469
G1 X259.691 Y75.633 E82.21661
G1 X260.33 Y76.338 E82.24826
G1 X260.739 Y76.835 E82.26966
G1 X261.31 Y77.604 E82.30152
G1 X261.661 Y78.128 E82.3225
G1 X262.15 Y78.938 E82.35397
G1 X262.455 Y79.504 E82.37535
G1 X262.864 Y80.36 E82.4069
G1 X263.117 Y80.965 E82.42872
G1 X263.446 Y81.877 E82.46096
G1 X263.633 Y82.486 E82.48215
G1 X263.87 Y83.415 E82.51404
G1 X263.999 Y84.049 E82.53556
G1 X264.145 Y85.004 E82.56769
G1 X264.212 Y85.657 E82.58952
G1 X264.263 Y86.633 E82.62203
G1 X264.272 Y86.977 E82.63348
G1 X264.275 Y208.799 E86.68529
G1 X264.275 Y212.987 E86.82458
G1 X264.267 Y213.304 E86.83513
G1 X264.222 Y214.239 E86.86627
G1 X264.163 Y214.863 E86.88711
G1 X264.025 Y215.821 E86.9193
G1 X263.9 Y216.461 E86.94099
G1 X263.676 Y217.369 E86.9721
G1 X263.491 Y217.986 E86.99352
G1 X263.16 Y218.923 E87.02658
G1 X262.914 Y219.525 E87.04821
G1 X262.512 Y220.383 E87.07972
G1 X262.211 Y220.951 E87.1011
G1 X261.722 Y221.775 E87.13297
G1 X261.349 Y222.337 E87.1554
G1 X260.728 Y223.175 E87.19009
G1 X260.323 Y223.669 E87.21134
G1 X259.708 Y224.35 E87.24186
G1 X259.242 Y224.816 E87.26378
G1 X258.537 Y225.455 E87.29543
G1 X258.039 Y225.864 E87.31686
G1 X257.274 Y226.432 E87.34855
G1 X256.754 Y226.781 E87.36938
G1 X255.94 Y227.273 E87.40102
G1 X255.371 Y227.58 E87.42252
G1 X254.515 Y227.989 E87.45407
G1 X253.91 Y228.242 E87.47588
G1 X252.998 Y228.571 E87.50813
G1 X252.389 Y228.758 E87.52932
G1 X251.46 Y228.995 E87.56121
G1 X250.824 Y229.125 E87.5828
G1 X249.867 Y229.271 E87.615
G1 X249.217 Y229.337 E87.63673
G1 X248.242 Y229.388 E87.6692
G1 X247.897 Y229.397 E87.68068
G1 X58.651 Y229.4 E93.97503
G1 X52.138 Y229.4 E94.19165
G1 X51.821 Y229.392 E94.2022
G1 X50.886 Y229.347 E94.23333
G1 X50.262 Y229.288 E94.25418
G1 X49.304 Y229.15 E94.28637
G1 X48.661 Y229.024 E94.30816
G1 X47.747 Y228.798 E94.33948
