;FLAVOR:Marlin
;TIME:20072
;Filament used: 13.1126m
;Layer height: 0.2
;MINX:30.448
;MINY:132.657
;MINZ:0.24
;MAXX:270.192
;MAXY:178.747
;MAXZ:11.29
;Generated with Cura_SteamEngine 4.5.0
M140 S70
M105
M190 S70
M104 S220
M105
M109 S220
M82 ;absolute extrusion mode
M201 X500.00 Y500.00 Z100.00 E5000.00 ;Setup machine max acceleration
M203 X500.00 Y500.00 Z10.00 E50.00 ;Setup machine max feedrate
M204 P500.00 R1000.00 T500.00 ;Setup Print/Retract/Travel acceleration
M205 X8.00 Y8.00 Z0.40 E5.00 ;Setup Jerk
M220 S100 ;Reset Feedrate
M221 S100 ;Reset Flowrate

G28 ;Home

G92 E0 ;Reset Extruder
G1 Z2.0 F3000 ;Move Z Axis up
G1 X10.1 Y20 Z0.28 F5000.0 ;Move to start position
G1 X10.1 Y200.0 Z0.28 F1500.0 E15 ;Draw the first line
G1 X10.4 Y200.0 Z0.28 F5000.0 ;Move to side a little
G1 X10.4 Y20 Z0.28 F1500.0 E30 ;Draw the second line
G92 E0 ;Reset Extruder
G1 Z2.0 F3000 ;Move Z Axis up

G92 E0
G92 E0
G1 F1800 E-6
;LAYER_COUNT:50
;LAYER:-6
M107
G0 F9000 X41.091 Y134.795 Z0.24
;TYPE:SUPPORT-INTERFACE
G1 F1800 E0
G1 F1125 X41.971 Y134.529 E0.07338
G1 X42.105 Y134.494 E0.08444
G1 X43.012 Y134.29 E0.15865
G1 X43.13 Y134.269 E0.16822
G1 X44.051 Y134.132 E0.24254
G1 X44.216 Y134.114 E0.25579
G1 X45.254 Y134.041 E0.33885
G1 X45.798 Y134.031 E0.38229
G1 X46.204 Y134.032 E0.4147
G1 X46.761 Y134.052 E0.45919
G1 X47.874 Y134.059 E0.54803
G1 X48.218 Y134.051 E0.5755
G1 X48.886 Y133.992 E0.62903
G1 X49.548 Y133.848 E0.68311
G1 X49.976 Y133.706 E0.71911
G1 X50.832 Y133.432 E0.79085
G1 X50.996 Y133.386 E0.80445
G1 X51.868 Y133.174 E0.87608
G1 X52.03 Y133.141 E0.88928
G1 X52.923 Y132.993 E0.96153
G1 X53.1 Y132.97 E0.97578
G1 X53.994 Y132.887 E1.04745
G1 X54.136 Y132.88 E1.0588
G1 X54.877 Y132.859 E1.11797
G1 X142.053 Y132.859 E8.07674
G1 X254.602 Y132.858 E17.06089
G1 X254.637 Y132.859 E17.06368
G1 X255.761 Y132.904 E17.15348
G1 X256.678 Y133.006 E17.22713
G1 X256.853 Y133.031 E17.24124
G1 X257.742 Y133.195 E17.3134
G1 X257.865 Y133.223 E17.32347
G1 X258.759 Y133.457 E17.39724
G1 X258.922 Y133.506 E17.41082
G1 X259.764 Y133.793 E17.48183
G1 X259.93 Y133.856 E17.496
G1 X260.746 Y134.202 E17.56675
G1 X260.903 Y134.276 E17.58061
G1 X261.833 Y134.759 E17.66426
G1 X262.612 Y135.234 E17.73709
G1 X262.763 Y135.334 E17.75155
G1 X263.477 Y135.845 E17.82164
G1 X263.625 Y135.958 E17.8365
G1 X264.425 Y136.631 E17.91995
G1 X265.093 Y137.27 E17.99374
G1 X265.849 Y138.093 E18.08295
G1 X266.412 Y138.796 E18.15484
G1 X266.516 Y138.935 E18.1687
G1 X267.009 Y139.65 E18.23803
G1 X267.125 Y139.834 E18.25539
G1 X267.568 Y140.59 E18.32533
G1 X267.645 Y140.732 E18.33823
G1 X268.048 Y141.551 E18.41109
G1 X268.104 Y141.677 E18.4221
G1 X268.446 Y142.522 E18.49486
G1 X268.505 Y142.687 E18.50885
G1 X268.777 Y143.534 E18.57986
G1 X268.823 Y143.696 E18.59331
G1 X269.035 Y144.57 E18.6651
G1 X269.068 Y144.728 E18.67798
G1 X269.216 Y145.621 E18.75023
G1 X269.24 Y145.805 E18.76505
G1 X269.322 Y146.69 E18.83599
G1 X269.33 Y146.842 E18.84814
G1 X269.351 Y147.575 E18.90668
G1 X269.351 Y148.187 E18.95553
G1 X269.342 Y148.44 E18.97574
G1 X269.341 Y148.775 E19.00248
G1 X269.351 Y149.126 E19.03051
G1 X269.351 Y150.841 E19.16741
G1 X269.344 Y151.034 E19.18283
G1 X269.342 Y151.335 E19.20685
G1 X269.351 Y151.774 E19.2419
G1 X269.351 Y152.409 E19.29259
G1 X269.296 Y153.919 E19.41321
G1 X269.311 Y153.919 E19.4144
G1 X269.31 Y154.09 E19.42805
G1 X269.45 Y155.04 E19.50471
G1 X269.676 Y155.975 E19.58149
G1 X269.709 Y156.133 E19.59438
G1 X269.857 Y157.025 E19.66655
G1 X269.881 Y157.211 E19.68152
G1 X269.963 Y158.095 E19.75239
G1 X269.971 Y158.247 E19.76454
G1 X269.992 Y158.98 E19.82308
G1 X269.992 Y159.592 E19.87193
G1 X269.983 Y159.845 E19.89214
G1 X269.982 Y160.18 E19.91888
G1 X269.992 Y160.531 E19.94691
G1 X269.992 Y162.246 E20.08381
G1 X269.985 Y162.439 E20.09922
G1 X269.983 Y162.74 E20.12325
G1 X269.992 Y163.179 E20.1583
G1 X269.992 Y163.815 E20.20907
G1 X269.947 Y164.944 E20.29926
G1 X269.844 Y165.873 E20.37387
G1 X269.819 Y166.048 E20.38798
G1 X269.657 Y166.926 E20.45925
G1 X269.627 Y167.06 E20.47021
G1 X269.396 Y167.945 E20.54323
G1 X269.344 Y168.117 E20.55757
G1 X269.057 Y168.959 E20.62858
G1 X268.991 Y169.133 E20.64343
G1 X268.653 Y169.928 E20.71239
G1 X268.572 Y170.103 E20.72778
G1 X268.091 Y171.028 E20.81101
G1 X267.616 Y171.807 E20.88384
G1 X267.516 Y171.958 E20.8983
G1 X267.005 Y172.672 E20.96838
G1 X266.892 Y172.82 E20.98325
G1 X266.219 Y173.62 E21.0667
G1 X265.579 Y174.289 E21.1406
G1 X264.884 Y174.934 E21.21629
G1 X264.745 Y175.053 E21.2309
G1 X264.054 Y175.607 E21.30159
G1 X263.915 Y175.711 E21.31545
G1 X263.2 Y176.204 E21.38478
G1 X263.016 Y176.32 E21.40214
G1 X262.26 Y176.763 E21.47209
G1 X262.118 Y176.84 E21.48498
G1 X261.173 Y177.299 E21.56884
G1 X260.318 Y177.644 E21.64244
G1 X260.155 Y177.702 E21.65625
G1 X259.312 Y177.973 E21.72693
G1 X259.148 Y178.019 E21.74053
G1 X258.276 Y178.231 E21.81216
G1 X258.114 Y178.264 E21.82536
G1 X257.221 Y178.412 E21.89762
G1 X257.044 Y178.435 E21.91186
G1 X256.15 Y178.518 E21.98353
G1 X256.008 Y178.525 E21.99488
G1 X255.267 Y178.546 E22.05406
G1 X142.695 Y178.547 E31.04004
G1 X55.541 Y178.546 E37.99705
G1 X55.506 Y178.545 E37.99984
G1 X54.383 Y178.5 E38.08956
G1 X53.465 Y178.398 E38.16329
G1 X53.29 Y178.373 E38.1774
G1 X52.419 Y178.212 E38.2481
G1 X52.258 Y178.176 E38.26127
G1 X51.387 Y177.949 E38.33312
G1 X51.196 Y177.892 E38.34903
G1 X50.463 Y177.641 E38.41088
G1 X49.817 Y177.463 E38.46437
G1 X49.143 Y177.37 E38.51868
G1 X49.098 Y177.369 E38.52227
G1 X49.098 Y177.361 E38.52291
G1 X48.012 Y177.346 E38.60961
G1 X47.6 Y177.356 E38.64251
G1 X46.934 Y177.346 E38.69567
G1 X46.934 Y177.357 E38.69655
G1 X46.332 Y177.371 E38.74462
G1 X46.166 Y177.368 E38.75787
G1 X45.262 Y177.323 E38.83012
G1 X45.108 Y177.31 E38.84246
G1 X44.208 Y177.199 E38.91485
G1 X44.027 Y177.17 E38.92948
G1 X43.185 Y177.003 E38.998
G1 X42.971 Y176.952 E39.01556
G1 X41.979 Y176.674 E39.0978
G1 X41.121 Y176.368 E39.17051
G1 X40.965 Y176.306 E39.18391
G1 X40.153 Y175.948 E39.25475
G1 X39.997 Y175.872 E39.2686
G1 X39.2 Y175.45 E39.34059
G1 X39.068 Y175.373 E39.35279
G1 X38.172 Y174.805 E39.43747
G1 X37.444 Y174.27 E39.50959
G1 X37.296 Y174.153 E39.52465
G1 X36.612 Y173.568 E39.59649
G1 X36.485 Y173.452 E39.61022
G1 X36.066 Y173.048 E39.65668
G1 X35.487 Y172.461 E39.7225
G1 X34.872 Y171.796 E39.7948
G1 X34.739 Y171.64 E39.81117
G1 X34.198 Y170.96 E39.88053
G1 X34.096 Y170.822 E39.89423
G1 X33.506 Y169.95 E39.97827
G1 X32.979 Y169.034 E40.06263
G1 X32.517 Y168.075 E40.1476
G1 X32.172 Y167.21 E40.22194
G1 X32.113 Y167.044 E40.236
G1 X31.846 Y166.203 E40.30644
G1 X31.798 Y166.03 E40.32077
G1 X31.563 Y165.019 E40.40362
G1 X31.416 Y164.115 E40.47673
G1 X31.394 Y163.938 E40.49097
G1 X31.307 Y162.911 E40.57324
G1 X31.289 Y162.22 E40.62842
G1 X31.289 Y160.613 E40.7567
G1 X31.325 Y159.607 E40.83705
G1 X31.335 Y159.472 E40.84786
G1 X31.437 Y158.555 E40.92151
G1 X31.462 Y158.38 E40.93562
G1 X31.544 Y157.94 E40.97134
G1 X31.623 Y157.276 E41.02472
G1 X31.619 Y156.592 E41.07932
G1 X31.527 Y155.917 E41.1337
G1 X31.382 Y155.351 E41.18034
G1 X31.206 Y154.798 E41.22667
G1 X31.158 Y154.625 E41.241
G1 X30.923 Y153.614 E41.32385
G1 X30.776 Y152.71 E41.39696
G1 X30.754 Y152.533 E41.4112
G1 X30.667 Y151.506 E41.49347
G1 X30.649 Y150.815 E41.54865
G1 X30.649 Y149.208 E41.67693
G1 X30.685 Y148.202 E41.75728
G1 X30.695 Y148.067 E41.76809
G1 X30.797 Y147.15 E41.84174
G1 X30.822 Y146.975 E41.85585
G1 X30.984 Y146.097 E41.92712
G1 X31.014 Y145.963 E41.93808
G1 X31.245 Y145.079 E42.01101
G1 X31.301 Y144.894 E42.02644
G1 X31.584 Y144.064 E42.09644
G1 X31.647 Y143.898 E42.11061
G1 X31.988 Y143.095 E42.18025
G1 X32.069 Y142.92 E42.19565
G1 X32.55 Y141.995 E42.27887
G1 X33.025 Y141.216 E42.3517
G1 X33.125 Y141.065 E42.36616
G1 X33.636 Y140.351 E42.43625
G1 X33.749 Y140.203 E42.45111
G1 X34.47 Y139.35 E42.54026
G1 X34.684 Y139.11 E42.56593
G1 X34.811 Y138.957 E42.5818
G1 X34.925 Y138.83 E42.59543
G1 X35.516 Y138.215 E42.66351
G1 X35.667 Y138.069 E42.68028
G1 X36.333 Y137.472 E42.75167
G1 X36.463 Y137.364 E42.76517
G1 X37.155 Y136.827 E42.83509
G1 X37.305 Y136.72 E42.84979
G1 X38.058 Y136.22 E42.92195
G1 X38.191 Y136.139 E42.93438
G1 X39.106 Y135.629 E43.01799
G1 X39.928 Y135.242 E43.09052
G1 X40.114 Y135.164 E43.10662
G1 X40.917 Y134.855 E43.1753
G1 X41.091 Y134.795 E43.18999
G0 F9000 X41.6 Y134.641
G1 F1125 X41.6 Y176.538 E46.53439
G1 F1800 E40.53439
G1 F300 Z0.44
G0 F9000 X43.2 Y177.005 Z0.44
G1 F300 Z0.24
G1 F1800 E46.53439
G1 F1125 X43.2 Y134.258 E49.94664
G1 F1800 E43.94664
G1 F300 Z0.44
G0 F9000 X44.8 Y134.072 Z0.44
G1 F300 Z0.24
G1 F1800 E49.94664
G1 F1125 X44.8 Y177.272 E53.39505
G1 F1800 E47.39505
G1 F300 Z0.44
G0 F9000 X46.4 Y177.37 Z0.44
G1 F300 Z0.24
G1 F1800 E53.39505
G1 F1125 X46.4 Y134.04 E56.85384
G1 F1800 E50.85384
G1 F300 Z0.44
G0 F9000 X48 Y134.056 Z0.44
G1 F300 Z0.24
G1 F1800 E56.85384
G1 F1125 X48 Y177.347 E60.30952
G1 F1800 E54.30952
G1 F300 Z0.44
G0 F9000 X49.6 Y177.433 Z0.44
G1 F300 Z0.24
G1 F1800 E60.30952
G1 F1125 X49.6 Y133.83 E63.7901
G1 F1800 E57.7901
G1 F300 Z0.44
G0 F9000 X51.2 Y133.336 Z0.44
G1 F300 Z0.24
G1 F1800 E63.7901
G1 F1125 X51.2 Y177.893 E67.34683
G1 F1800 E61.34683
G1 F300 Z0.44
G0 F9000 X52.8 Y178.282 Z0.44
G1 F300 Z0.24
G1 F1800 E67.34683
G1 F1125 X52.8 Y133.013 E70.96039
G1 F1800 E64.96039
G1 F300 Z0.44
G0 F9000 X54.4 Y132.872 Z0.44
G1 F300 Z0.24
G1 F1800 E70.96039
G1 F1125 X54.4 Y178.5 E74.60262
G1 F1800 E68.60262
G1 F300 Z0.44
G0 F9000 X56 Y178.546 Z0.44
G1 F300 Z0.24
G1 F1800 E74.60262
G1 F1125 X56 Y132.859 E78.24955
G1 F1800 E72.24955
G1 F300 Z0.44
G0 F9000 X57.6 Y132.859 Z0.44
G1 F300 Z0.24
G1 F1800 E78.24955
G1 F1125 X57.6 Y178.546 E81.89649
G1 F1800 E75.89649
G1 F300 Z0.44
G0 F9000 X59.2 Y178.546 Z0.44
G1 F300 Z0.24
G1 F1800 E81.89649
G1 F1125 X59.2 Y132.859 E85.54342
G1 F1800 E79.54342
G1 F300 Z0.44
G0 F9000 X60.8 Y132.859 Z0.44
G1 F300 Z0.24
G1 F1800 E85.54342
G1 F1125 X60.8 Y178.546 E89.19035
G1 F1800 E83.19035
G1 F300 Z0.44
G0 F9000 X62.4 Y178.546 Z0.44
G1 F300 Z0.24
G1 F1800 E89.19035
G1 F1125 X62.4 Y132.859 E92.83729
G1 F1800 E86.83729
G1 F300 Z0.44
G0 F9000 X64 Y132.859 Z0.44
G1 F300 Z0.24
G1 F1800 E92.83729
G1 F1125 X64 Y178.546 E96.48422
G1 F1800 E90.48422
G1 F300 Z0.44
G0 F9000 X65.6 Y178.546 Z0.44
G1 F300 Z0.24
G1 F1800 E96.48422
G1 F1125 X65.6 Y132.859 E100.13116
G1 F1800 E94.13116
G1 F300 Z0.44
G0 F9000 X67.2 Y132.859 Z0.44
G1 F300 Z0.24
G1 F1800 E100.13116
G1 F1125 X67.2 Y178.546 E103.77809
G1 F1800 E97.77809
G1 F300 Z0.44
G0 F9000 X68.8 Y178.546 Z0.44
G1 F300 Z0.24
G1 F1800 E103.77809
G1 F1125 X68.8 Y132.859 E107.42502
G1 F1800 E101.42502
G1 F300 Z0.44
G0 F9000 X70.4 Y132.859 Z0.44
G1 F300 Z0.24
G1 F1800 E107.42502
G1 F1125 X70.4 Y178.546 E111.07196
G1 F1800 E105.07196
G1 F300 Z0.44
G0 F9000 X72 Y178.546 Z0.44
G1 F300 Z0.24
G1 F1800 E111.07196
G1 F1125 X72 Y132.859 E114.71889
G1 F1800 E108.71889
G1 F300 Z0.44
G0 F9000 X73.6 Y132.859 Z0.44
G1 F300 Z0.24
G1 F1800 E114.71889
G1 F1125 X73.6 Y178.546 E118.36583
G1 F1800 E112.36583
G1 F300 Z0.44
G0 F9000 X75.2 Y178.546 Z0.44
G1 F300 Z0.24
G1 F1800 E118.36583
G1 F1125 X75.2 Y132.859 E122.01276
G1 F1800 E116.01276
G1 F300 Z0.44
G0 F9000 X76.8 Y132.859 Z0.44
G1 F300 Z0.24
G1 F1800 E122.01276
G1 F1125 X76.8 Y178.546 E125.65969
G1 F1800 E119.65969
G1 F300 Z0.44
G0 F9000 X78.4 Y178.546 Z0.44
G1 F300 Z0.24
G1 F1800 E125.65969
G1 F1125 X78.4 Y132.859 E129.30663
G1 F1800 E123.30663
G1 F300 Z0.44
G0 F9000 X80 Y132.859 Z0.44
G1 F300 Z0.24
G1 F1800 E129.30663
G1 F1125 X80 Y178.546 E132.95356
G1 F1800 E126.95356
G1 F300 Z0.44
G0 F9000 X81.6 Y178.546 Z0.44
G1 F300 Z0.24
G1 F1800 E132.95356
G1 F1125 X81.6 Y132.859 E136.6005
G1 F1800 E130.6005
G1 F300 Z0.44
G0 F9000 X83.2 Y132.859 Z0.44
G1 F300 Z0.24
G1 F1800 E136.6005
G1 F1125 X83.2 Y178.546 E140.24743
G1 F1800 E134.24743
G1 F300 Z0.44
G0 F9000 X84.8 Y178.546 Z0.44
G1 F300 Z0.24
G1 F1800 E140.24743
G1 F1125 X84.8 Y132.859 E143.89436
G1 F1800 E137.89436
G1 F300 Z0.44
G0 F9000 X86.4 Y132.859 Z0.44
G1 F300 Z0.24
G1 F1800 E143.89436
G1 F1125 X86.4 Y178.546 E147.5413
G1 F1800 E141.5413
G1 F300 Z0.44
G0 F9000 X88 Y178.546 Z0.44
G1 F300 Z0.24
G1 F1800 E147.5413
G1 F1125 X88 Y132.859 E151.18823
G1 F1800 E145.18823
G1 F300 Z0.44
G0 F9000 X89.6 Y132.859 Z0.44
G1 F300 Z0.24
G1 F1800 E151.18823
G1 F1125 X89.6 Y178.546 E154.83516
G1 F1800 E148.83516
G1 F300 Z0.44
G0 F9000 X91.2 Y178.546 Z0.44
G1 F300 Z0.24
G1 F1800 E154.83516
G1 F1125 X91.2 Y132.859 E158.4821
G1 F1800 E152.4821
G1 F300 Z0.44
G0 F9000 X92.8 Y132.859 Z0.44
G1 F300 Z0.24
G1 F1800 E158.4821
G1 F1125 X92.8 Y178.546 E162.12903
G1 F1800 E156.12903
G1 F300 Z0.44
G0 F9000 X94.4 Y178.546 Z0.44
G1 F300 Z0.24
G1 F1800 E162.12903
G1 F1125 X94.4 Y132.859 E165.77597
G1 F1800 E159.77597
G1 F300 Z0.44
G0 F9000 X96 Y132.859 Z0.44
G1 F300 Z0.24
G1 F1800 E165.77597
G1 F1125 X96 Y178.546 E169.4229
G1 F1800 E163.4229
G1 F300 Z0.44
G0 F9000 X97.6 Y178.546 Z0.44
G1 F300 Z0.24
G1 F1800 E169.4229
G1 F1125 X97.6 Y132.859 E173.06983
G1 F1800 E167.06983
G1 F300 Z0.44
G0 F9000 X99.2 Y132.859 Z0.44
G1 F300 Z0.24
G1 F1800 E173.06983
G1 F1125 X99.2 Y178.546 E176.71677
G1 F1800 E170.71677
G1 F300 Z0.44
G0 F9000 X100.8 Y178.546 Z0.44
G1 F300 Z0.24
G1 F1800 E176.71677
G1 F1125 X100.8 Y132.859 E180.3637
G1 F1800 E174.3637
G1 F300 Z0.44
G0 F9000 X102.4 Y132.859 Z0.44
G1 F300 Z0.24
G1 F1800 E180.3637
G1 F1125 X102.4 Y178.546 E184.01064
G1 F1800 E178.01064
G1 F300 Z0.44
G0 F9000 X104 Y178.546 Z0.44
G1 F300 Z0.24
G1 F1800 E184.01064
G1 F1125 X104 Y132.859 E187.65757
G1 F1800 E181.65757
G1 F300 Z0.44
G0 F9000 X105.6 Y132.859 Z0.44
G1 F300 Z0.24
G1 F1800 E187.65757
G1 F1125 X105.6 Y178.546 E191.3045
G1 F1800 E185.3045
G1 F300 Z0.44
G0 F9000 X107.2 Y178.546 Z0.44
G1 F300 Z0.24
G1 F1800 E191.3045
G1 F1125 X107.2 Y132.859 E194.95144
G1 F1800 E188.95144
G1 F300 Z0.44
G0 F9000 X108.8 Y132.859 Z0.44
G1 F300 Z0.24
G1 F1800 E194.95144
G1 F1125 X108.8 Y178.546 E198.59837
G1 F1800 E192.59837
G1 F300 Z0.44
G0 F9000 X110.4 Y178.546 Z0.44
G1 F300 Z0.24
G1 F1800 E198.59837
G1 F1125 X110.4 Y132.859 E202.24531
G1 F1800 E196.24531
G1 F300 Z0.44
G0 F9000 X112 Y132.859 Z0.44
G1 F300 Z0.24
G1 F1800 E202.24531
G1 F1125 X112 Y178.546 E205.89224
G1 F1800 E199.89224
G1 F300 Z0.44
G0 F9000 X113.6 Y178.546 Z0.44
G1 F300 Z0.24
G1 F1800 E205.89224
G1 F1125 X113.6 Y132.859 E209.53917
G1 F1800 E203.53917
G1 F300 Z0.44
G0 F9000 X115.2 Y132.859 Z0.44
G1 F300 Z0.24
G1 F1800 E209.53917
G1 F1125 X115.2 Y178.546 E213.18611
G1 F1800 E207.18611
G1 F300 Z0.44
G0 F9000 X116.8 Y178.546 Z0.44
G1 F300 Z0.24
G1 F1800 E213.18611
G1 F1125 X116.8 Y132.859 E216.83304
G1 F1800 E210.83304
G1 F300 Z0.44
G0 F9000 X118.4 Y132.859 Z0.44
G1 F300 Z0.24
G1 F1800 E216.83304
G1 F1125 X118.4 Y178.546 E220.47998
G1 F1800 E214.47998
G1 F300 Z0.44
G0 F9000 X120 Y178.546 Z0.44
G1 F300 Z0.24
G1 F1800 E220.47998
G1 F1125 X120 Y132.859 E224.12691
G1 F1800 E218.12691
G1 F300 Z0.44
G0 F9000 X121.6 Y132.859 Z0.44
G1 F300 Z0.24
G1 F1800 E224.12691
G1 F1125 X121.6 Y178.546 E227.77384
G1 F1800 E221.77384
G1 F300 Z0.44
G0 F9000 X123.2 Y178.546 Z0.44
G1 F300 Z0.24
G1 F1800 E227.77384
G1 F1125 X123.2 Y132.859 E231.42078
G1 F1800 E225.42078
G1 F300 Z0.44
G0 F9000 X124.8 Y132.859 Z0.44
G1 F300 Z0.24
G1 F1800 E231.42078
G1 F1125 X124.8 Y178.546 E235.06771
G1 F1800 E229.06771
G1 F300 Z0.44
G0 F9000 X126.4 Y178.546 Z0.44
G1 F300 Z0.24
G1 F1800 E235.06771
G1 F1125 X126.4 Y132.859 E238.71464
G1 F1800 E232.71464
G1 F300 Z0.44
G0 F9000 X128 Y132.859 Z0.44
G1 F300 Z0.24
G1 F1800 E238.71464
G1 F1125 X128 Y178.546 E242.36158
G1 F1800 E236.36158
G1 F300 Z0.44
G0 F9000 X129.6 Y178.546 Z0.44
G1 F300 Z0.24
G1 F1800 E242.36158
G1 F1125 X129.6 Y132.859 E246.00851
G1 F1800 E240.00851
G1 F300 Z0.44
G0 F9000 X131.2 Y132.859 Z0.44
G1 F300 Z0.24
G1 F1800 E246.00851
G1 F1125 X131.2 Y178.546 E249.65545
G1 F1800 E243.65545
G1 F300 Z0.44
G0 F9000 X132.8 Y178.546 Z0.44
G1 F300 Z0.24
G1 F1800 E249.65545
G1 F1125 X132.8 Y132.859 E253.30238
G1 F1800 E247.30238
G1 F300 Z0.44
G0 F9000 X134.4 Y132.859 Z0.44
G1 F300 Z0.24
G1 F1800 E253.30238
G1 F1125 X134.4 Y178.546 E256.94931
G1 F1800 E250.94931
G1 F300 Z0.44
