;FLAVOR:Marlin
;TIME:18888
;Filament used: 12.6419m
;Layer height: 0.2
;MINX:45.067
;MINY:45.067
;MINZ:0.2
;MAXX:254.933
;MAXY:254.933
;MAXZ:11.8
;Generated with Cura_SteamEngine 4.5.0
M140 S60
M105
M190 S60
M104 S200
M105
M109 S200
M82 ;absolute extrusion mode
M201 X500.00 Y500.00 Z100.00 E5000.00 ;Setup machine max acceleration
M203 X500.00 Y500.00 Z10.00 E50.00 ;Setup machine max feedrate
M204 P500.00 R1000.00 T500.00 ;Setup Print/Retract/Travel acceleration
M205 X8.00 Y8.00 Z0.40 E5.00 ;Setup Jerk
M220 S100 ;Reset Feedrate
M221 S100 ;Reset Flowrate

G28 ;Home

G92 E0 ;Reset Extruder
G1 Z2.0 F3000 ;Move Z Axis up
G1 X10.1 Y20 Z0.28 F5000.0 ;Move to start position
G1 X10.1 Y200.0 Z0.28 F1500.0 E15 ;Draw the first line
G1 X10.4 Y200.0 Z0.28 F5000.0 ;Move to side a little
G1 X10.4 Y20 Z0.28 F1500.0 E30 ;Draw the second line
G92 E0 ;Reset Extruder
G1 Z2.0 F3000 ;Move Z Axis up

G92 E0
G92 E0
G1 F1500 E-1.4
;LAYER_COUNT:59
;LAYER:0
M107
G0 F6000 X49.532 Y49.223 Z0.2
;TYPE:SKIRT
G1 F1500 E0
G1 F1200 X49.975 Y48.821 E0.0199
G1 X50.414 Y48.444 E0.03914
G1 X51.504 Y47.62 E0.08459
G1 X51.679 Y47.504 E0.09157
G1 X52.149 Y47.209 E0.11003
G1 X52.468 Y47.02 E0.12236
G1 X53.503 Y46.479 E0.16121
G1 X53.689 Y46.394 E0.16801
G1 X54.197 Y46.177 E0.18638
G1 X54.529 Y46.045 E0.19826
G1 X55.605 Y45.681 E0.23604
G1 X55.814 Y45.622 E0.24327
G1 X56.36 Y45.482 E0.26201
G1 X56.729 Y45.398 E0.2746
G1 X58.003 Y45.186 E0.31756
G1 X58.209 Y45.164 E0.32445
G1 X58.655 Y45.126 E0.33934
G1 X59.02 Y45.102 E0.3515
G1 X59.551 Y45.08 E0.36918
G1 X60.319 Y45.068 E0.39472
G1 X119.916 Y45.067 E2.37693
G1 X239.544 Y45.068 E6.35577
G1 X240.406 Y45.079 E6.38444
G1 X241.119 Y45.112 E6.40818
G1 X241.674 Y45.156 E6.4267
G1 X242.605 Y45.27 E6.4579
G1 X243.337 Y45.417 E6.48273
G1 X243.912 Y45.553 E6.50238
G1 X245.248 Y45.961 E6.54884
G1 X245.445 Y46.035 E6.55584
G1 X245.91 Y46.221 E6.5725
G1 X246.246 Y46.365 E6.58466
G1 X247.405 Y46.945 E6.62777
G1 X247.582 Y47.047 E6.63456
G1 X247.979 Y47.287 E6.64999
G1 X248.274 Y47.474 E6.66161
G1 X249.173 Y48.109 E6.69821
G1 X249.363 Y48.258 E6.70625
G1 X249.86 Y48.673 E6.72778
G1 X250.11 Y48.894 E6.73888
G1 X250.845 Y49.606 E6.77291
G1 X250.983 Y49.753 E6.77962
G1 X251.433 Y50.263 E6.80224
G1 X251.67 Y50.549 E6.8146
G1 X252.307 Y51.399 E6.84993
G1 X252.433 Y51.585 E6.8574
G1 X252.785 Y52.139 E6.87923
G1 X252.972 Y52.454 E6.89141
G1 X253.513 Y53.486 E6.93017
G1 X253.601 Y53.678 E6.93719
G1 X253.823 Y54.197 E6.95597
G1 X253.955 Y54.529 E6.96785
G1 X254.32 Y55.606 E7.00567
G1 X254.377 Y55.808 E7.01265
G1 X254.513 Y56.342 E7.03098
G1 X254.599 Y56.718 E7.04381
G1 X254.814 Y58.003 E7.08714
G1 X254.836 Y58.209 E7.09403
G1 X254.874 Y58.653 E7.10886
G1 X254.898 Y59.017 E7.12099
G1 X254.92 Y59.551 E7.13876
G1 X254.932 Y60.319 E7.16431
G1 X254.933 Y119.914 E9.14645
G1 X254.932 Y239.544 E13.12536
G1 X254.931 Y239.7 E13.13055
G1 X254.921 Y240.405 E13.154
G1 X254.888 Y241.115 E13.17764
G1 X254.844 Y241.672 E13.19622
G1 X254.73 Y242.603 E13.22742
G1 X254.582 Y243.342 E13.25249
G1 X254.446 Y243.916 E13.27211
G1 X254.039 Y245.248 E13.31843
G1 X253.965 Y245.445 E13.32543
G1 X253.766 Y245.939 E13.34314
G1 X253.62 Y246.277 E13.35539
G1 X253.073 Y247.373 E13.39613
G1 X252.973 Y247.548 E13.40283
G1 X252.706 Y247.99 E13.42001
G1 X252.516 Y248.289 E13.43179
G1 X251.885 Y249.181 E13.46813
G1 X251.739 Y249.367 E13.476
G1 X251.327 Y249.86 E13.49737
G1 X251.106 Y250.11 E13.50846
G1 X250.394 Y250.845 E13.5425
G1 X250.247 Y250.983 E13.54921
G1 X249.74 Y251.43 E13.57169
G1 X249.453 Y251.668 E13.58409
G1 X248.578 Y252.323 E13.62044
G1 X248.391 Y252.449 E13.62794
G1 X247.851 Y252.791 E13.6492
G1 X247.532 Y252.98 E13.66153
G1 X246.497 Y253.521 E13.70038
G1 X246.311 Y253.606 E13.70718
G1 X245.803 Y253.823 E13.72555
G1 X245.471 Y253.955 E13.73743
G1 X244.395 Y254.319 E13.77521
G1 X244.186 Y254.378 E13.78244
G1 X243.64 Y254.518 E13.80119
G1 X243.271 Y254.602 E13.81377
G1 X241.997 Y254.814 E13.85673
G1 X241.791 Y254.836 E13.86362
G1 X241.345 Y254.874 E13.87851
G1 X240.98 Y254.898 E13.89067
G1 X240.449 Y254.92 E13.90835
G1 X239.681 Y254.932 E13.9339
G1 X180.084 Y254.933 E15.9161
G1 X60.456 Y254.932 E19.89494
G1 X60.3 Y254.931 E19.90013
G1 X59.595 Y254.921 E19.92358
G1 X58.885 Y254.888 E19.94722
G1 X58.328 Y254.844 E19.96581
G1 X57.397 Y254.73 E19.997
G1 X56.658 Y254.582 E20.02207
G1 X56.084 Y254.446 E20.04169
G1 X54.752 Y254.039 E20.08801
G1 X54.555 Y253.965 E20.09501
G1 X54.09 Y253.779 E20.11167
G1 X53.754 Y253.635 E20.12383
G1 X52.595 Y253.055 E20.16694
G1 X52.418 Y252.953 E20.17373
G1 X52.028 Y252.717 E20.18889
G1 X51.723 Y252.524 E20.2009
G1 X50.745 Y251.827 E20.24084
G1 X50.557 Y251.677 E20.24884
G1 X50.13 Y251.319 E20.26737
G1 X49.888 Y251.105 E20.27812
G1 X49.157 Y250.396 E20.31199
G1 X49.018 Y250.248 E20.31874
G1 X48.565 Y249.734 E20.34153
G1 X48.314 Y249.431 E20.35462
G1 X47.624 Y248.503 E20.39308
G1 X47.511 Y248.333 E20.39987
G1 X47.198 Y247.834 E20.41946
G1 X47.008 Y247.512 E20.43189
G1 X46.466 Y246.47 E20.47096
G1 X46.382 Y246.285 E20.47772
G1 X46.172 Y245.791 E20.49557
G1 X46.036 Y245.448 E20.50784
G1 X45.657 Y244.316 E20.54755
G1 X45.603 Y244.12 E20.55431
G1 X45.481 Y243.633 E20.57101
G1 X45.397 Y243.263 E20.58363
G1 X45.186 Y241.991 E20.62651
G1 X45.164 Y241.784 E20.63344
G1 X45.125 Y241.329 E20.64862
G1 X45.101 Y240.957 E20.66102
G1 X45.08 Y240.443 E20.67813
G1 X45.068 Y239.681 E20.70348
G1 X45.068 Y119.915 E24.68691
G1 X45.067 Y60.458 E26.66446
G1 X45.068 Y60.303 E26.66962
G1 X45.078 Y59.593 E26.69323
G1 X45.106 Y58.92 E26.71564
G1 X45.139 Y58.484 E26.73018
G1 X45.164 Y58.223 E26.7389
G1 X45.371 Y56.909 E26.78314
G1 X45.51 Y56.277 E26.80467
G1 X45.75 Y55.371 E26.83584
G1 X45.917 Y54.877 E26.85318
G1 X45.996 Y54.66 E26.86086
G1 X46.225 Y54.083 E26.88151
G1 X46.368 Y53.75 E26.89357
G1 X46.941 Y52.604 E26.93618
G1 X47.044 Y52.425 E26.94305
G1 X47.275 Y52.04 E26.95798
G1 X47.47 Y51.731 E26.97014
G1 X48.174 Y50.742 E27.01051
G1 X48.316 Y50.564 E27.01809
G1 X48.657 Y50.158 E27.03572
G1 X48.884 Y49.9 E27.04715
G1 X49.532 Y49.223 E27.07832
G0 F6000 X49.821 Y49.5
G1 F1200 X50.236 Y49.124 E27.09695
G1 X50.675 Y48.747 E27.11619
G1 X51.725 Y47.954 E27.15996
G1 X51.9 Y47.838 E27.16694
G1 X52.353 Y47.553 E27.18474
G1 X52.672 Y47.364 E27.19707
G1 X53.669 Y46.843 E27.23449
G1 X53.855 Y46.758 E27.24129
G1 X54.345 Y46.549 E27.25901
G1 X54.677 Y46.417 E27.27089
G1 X55.713 Y46.066 E27.30727
G1 X55.922 Y46.007 E27.31449
G1 X56.449 Y45.872 E27.33259
G1 X56.818 Y45.788 E27.34518
G1 X58.045 Y45.584 E27.38655
G1 X58.251 Y45.562 E27.39344
G1 X58.682 Y45.525 E27.40782
G1 X59.047 Y45.501 E27.41999
G1 X59.558 Y45.48 E27.437
G1 X60.319 Y45.468 E27.46231
G1 X119.916 Y45.467 E29.44452
G1 X239.544 Y45.468 E33.42336
G1 X240.4 Y45.479 E33.45184
G1 X241.088 Y45.511 E33.47474
G1 X241.643 Y45.555 E33.49326
G1 X242.556 Y45.668 E33.52386
G1 X243.245 Y45.807 E33.54724
G1 X243.82 Y45.943 E33.56689
G1 X245.107 Y46.335 E33.61164
G1 X245.304 Y46.409 E33.61864
G1 X245.753 Y46.589 E33.63472
G1 X246.089 Y46.733 E33.64688
G1 X247.206 Y47.292 E33.68843
G1 X247.383 Y47.394 E33.69522
G1 X247.765 Y47.625 E33.71007
G1 X248.06 Y47.812 E33.72169
G1 X248.926 Y48.424 E33.75696
G1 X249.116 Y48.573 E33.76499
G1 X249.596 Y48.972 E33.78575
G1 X249.846 Y49.193 E33.79685
G1 X250.553 Y49.88 E33.82963
G1 X250.691 Y50.027 E33.83634
G1 X251.125 Y50.519 E33.85816
G1 X251.362 Y50.805 E33.87051
G1 X251.976 Y51.623 E33.90453
G1 X252.102 Y51.809 E33.91201
G1 X252.441 Y52.343 E33.93304
G1 X252.628 Y52.658 E33.94523
G1 X253.149 Y53.652 E33.98255
G1 X253.237 Y53.844 E33.98958
G1 X253.451 Y54.345 E34.0077
G1 X253.583 Y54.677 E34.01958
G1 X253.935 Y55.714 E34.056
G1 X253.992 Y55.916 E34.06299
G1 X254.123 Y56.432 E34.08069
G1 X254.209 Y56.808 E34.09352
G1 X254.416 Y58.045 E34.13524
G1 X254.438 Y58.251 E34.14213
G1 X254.475 Y58.68 E34.15645
G1 X254.499 Y59.044 E34.16858
G1 X254.52 Y59.558 E34.18569
G1 X254.532 Y60.319 E34.21101
G1 X254.533 Y119.914 E36.19314
G1 X254.532 Y239.544 E40.17205
G1 X254.531 Y239.694 E40.17704
G1 X254.521 Y240.399 E40.20049
G1 X254.489 Y241.084 E40.2233
G1 X254.445 Y241.641 E40.24188
G1 X254.333 Y242.555 E40.27251
G1 X254.192 Y243.25 E40.2961
G1 X254.056 Y243.824 E40.31572
G1 X253.665 Y245.107 E40.36033
G1 X253.591 Y245.304 E40.36733
G1 X253.399 Y245.78 E40.3844
G1 X253.253 Y246.118 E40.39664
G1 X252.725 Y247.174 E40.43591
G1 X252.625 Y247.349 E40.44262
G1 X252.369 Y247.775 E40.45915
G1 X252.179 Y248.074 E40.47093
G1 X251.57 Y248.934 E40.50598
G1 X251.424 Y249.12 E40.51384
G1 X251.028 Y249.596 E40.53444
G1 X250.807 Y249.846 E40.54554
G1 X250.12 Y250.553 E40.57832
G1 X249.973 Y250.691 E40.58503
G1 X249.484 Y251.122 E40.60671
G1 X249.197 Y251.36 E40.61911
G1 X248.354 Y251.992 E40.65415
G1 X248.167 Y252.118 E40.66165
G1 X247.647 Y252.447 E40.68212
G1 X247.328 Y252.636 E40.69445
G1 X246.331 Y253.157 E40.73187
G1 X246.145 Y253.242 E40.73867
G1 X245.655 Y253.451 E40.75639
G1 X245.323 Y253.583 E40.76827
G1 X244.287 Y253.934 E40.80465
G1 X244.078 Y253.993 E40.81188
G1 X243.551 Y254.128 E40.82997
G1 X243.182 Y254.212 E40.84256
G1 X241.955 Y254.416 E40.88393
G1 X241.749 Y254.438 E40.89082
G1 X241.318 Y254.475 E40.9052
G1 X240.953 Y254.499 E40.91737
G1 X240.442 Y254.52 E40.93438
G1 X239.681 Y254.532 E40.9597
G1 X180.084 Y254.533 E42.9419
G1 X60.456 Y254.532 E46.92074
G1 X60.306 Y254.531 E46.92573
G1 X59.601 Y254.521 E46.94918
G1 X58.916 Y254.489 E46.97199
G1 X58.359 Y254.445 E46.99057
G1 X57.445 Y254.333 E47.0212
G1 X56.75 Y254.192 E47.04479
G1 X56.176 Y254.056 E47.06441
G1 X54.893 Y253.665 E47.10902
G1 X54.696 Y253.591 E47.11602
G1 X54.247 Y253.411 E47.13211
G1 X53.911 Y253.267 E47.14427
G1 X52.794 Y252.708 E47.18581
G1 X52.617 Y252.606 E47.1926
G1 X52.242 Y252.379 E47.20718
G1 X51.937 Y252.186 E47.21919
G1 X50.994 Y251.515 E47.25768
G1 X50.806 Y251.365 E47.26568
G1 X50.395 Y251.02 E47.28353
G1 X50.153 Y250.806 E47.29427
G1 X49.448 Y250.122 E47.32695
G1 X49.309 Y249.974 E47.3337
G1 X48.873 Y249.479 E47.35564
G1 X48.622 Y249.176 E47.36872
G1 X47.957 Y248.282 E47.40578
G1 X47.844 Y248.112 E47.41257
G1 X47.543 Y247.631 E47.43145
G1 X47.353 Y247.309 E47.44388
G1 X46.83 Y246.304 E47.48156
G1 X46.746 Y246.119 E47.48832
G1 X46.544 Y245.644 E47.50549
G1 X46.408 Y245.301 E47.51776
G1 X46.043 Y244.21 E47.55602
G1 X45.989 Y244.014 E47.56279
G1 X45.871 Y243.545 E47.57887
G1 X45.787 Y243.175 E47.59149
G1 X45.583 Y241.948 E47.63286
G1 X45.561 Y241.741 E47.63978
G1 X45.524 Y241.303 E47.6544
G1 X45.5 Y240.931 E47.6668
G1 X45.48 Y240.436 E47.68328
G1 X45.468 Y239.681 E47.70839
G1 X45.468 Y119.915 E51.69183
G1 X45.467 Y60.458 E53.66938
G1 X45.468 Y60.309 E53.67433
G1 X45.478 Y59.599 E53.69795
G1 X45.505 Y58.942 E53.71982
G1 X45.537 Y58.522 E53.73383
G1 X45.562 Y58.261 E53.74255
G1 X45.761 Y56.995 E53.78517
G1 X45.9 Y56.363 E53.8067
G1 X46.137 Y55.473 E53.83733
G1 X46.372 Y54.797 E53.86113
G1 X46.592 Y54.24 E53.88105
G1 X46.735 Y53.907 E53.89311
G1 X47.287 Y52.803 E53.93416
G1 X47.39 Y52.624 E53.94103
G1 X47.614 Y52.254 E53.95541
G1 X47.809 Y51.945 E53.96757
G1 X48.487 Y50.992 E54.00647
G1 X48.629 Y50.814 E54.01404
G1 X48.957 Y50.422 E54.03104
G1 X49.184 Y50.164 E54.04247
G1 X49.821 Y49.5 E54.07307
G0 F6000 X50.11 Y49.777
G1 F1200 X50.497 Y49.428 E54.09041
G1 X50.936 Y49.051 E54.10965
G1 X51.946 Y48.287 E54.15177
G1 X52.121 Y48.171 E54.15876
G1 X52.557 Y47.898 E54.17587
G1 X52.876 Y47.709 E54.1882
G1 X53.835 Y47.207 E54.2242
G1 X54.021 Y47.122 E54.231
G1 X54.493 Y46.921 E54.24807
G1 X54.825 Y46.789 E54.25995
G1 X55.822 Y46.451 E54.29496
G1 X56.031 Y46.392 E54.30219
G1 X56.538 Y46.262 E54.31959
G1 X56.907 Y46.178 E54.33218
G1 X58.088 Y45.982 E54.372
G1 X58.294 Y45.96 E54.37889
G1 X58.708 Y45.924 E54.39271
G1 X59.073 Y45.9 E54.40488
G1 X59.565 Y45.88 E54.42125
G1 X60.319 Y45.868 E54.44634
G1 X119.916 Y45.867 E56.42854
G1 X239.544 Y45.868 E60.40738
G1 X240.394 Y45.879 E60.43566
G1 X241.056 Y45.91 E60.4577
G1 X241.611 Y45.954 E60.47622
G1 X242.507 Y46.065 E60.50625
G1 X243.153 Y46.196 E60.52817
G1 X243.728 Y46.332 E60.54782
G1 X244.967 Y46.709 E60.5909
G1 X245.164 Y46.783 E60.59789
G1 X245.595 Y46.957 E60.61335
G1 X245.931 Y47.101 E60.62551
G1 X247.006 Y47.638 E60.66548
G1 X247.183 Y47.74 E60.67227
G1 X247.551 Y47.963 E60.68659
G1 X247.846 Y48.15 E60.6982
G1 X248.679 Y48.739 E60.73214
G1 X248.869 Y48.888 E60.74017
G1 X249.331 Y49.272 E60.76015
G1 X249.581 Y49.493 E60.77125
G1 X250.262 Y50.154 E60.80281
G1 X250.4 Y50.301 E60.80952
G1 X250.817 Y50.774 E60.83049
G1 X251.054 Y51.06 E60.84284
G1 X251.645 Y51.847 E60.87558
G1 X251.771 Y52.033 E60.88305
G1 X252.097 Y52.547 E60.90329
G1 X252.284 Y52.862 E60.91548
G1 X252.785 Y53.819 E60.95141
G1 X252.873 Y54.011 E60.95843
G1 X253.079 Y54.493 E60.97587
G1 X253.211 Y54.825 E60.98775
G1 X253.55 Y55.823 E61.0228
G1 X253.607 Y56.025 E61.02979
G1 X253.733 Y56.521 E61.04681
G1 X253.819 Y56.897 E61.05964
G1 X254.018 Y58.088 E61.0998
G1 X254.04 Y58.294 E61.10669
G1 X254.076 Y58.706 E61.12044
G1 X254.1 Y59.07 E61.13258
G1 X254.12 Y59.565 E61.14905
G1 X254.132 Y60.319 E61.17414
G1 X254.133 Y119.914 E63.15627
G1 X254.132 Y239.544 E67.13518
G1 X254.131 Y239.689 E67.14001
G1 X254.121 Y240.394 E67.16346
G1 X254.09 Y241.052 E67.18537
G1 X254.046 Y241.609 E67.20395
G1 X253.935 Y242.506 E67.23401
G1 X253.803 Y243.158 E67.25614
G1 X253.667 Y243.732 E67.27576
G1 X253.291 Y244.967 E67.31869
G1 X253.217 Y245.164 E67.32569
G1 X253.032 Y245.622 E67.34212
G1 X252.886 Y245.96 E67.35437
G1 X252.378 Y246.976 E67.39215
G1 X252.278 Y247.151 E67.39885
G1 X252.031 Y247.561 E67.41477
G1 X251.841 Y247.86 E67.42656
G1 X251.255 Y248.687 E67.46027
G1 X251.109 Y248.873 E67.46813
G1 X250.728 Y249.331 E67.48795
G1 X250.507 Y249.581 E67.49905
G1 X249.846 Y250.262 E67.53061
G1 X249.699 Y250.4 E67.53732
G1 X249.229 Y250.815 E67.55817
G1 X248.942 Y251.053 E67.57057
G1 X248.131 Y251.66 E67.60426
G1 X247.944 Y251.786 E67.61176
G1 X247.443 Y252.102 E67.63146
G1 X247.124 Y252.291 E67.6438
G1 X246.165 Y252.793 E67.6798
G1 X245.979 Y252.878 E67.6866
G1 X245.507 Y253.079 E67.70366
G1 X245.175 Y253.211 E67.71555
G1 X244.178 Y253.549 E67.75056
G1 X243.969 Y253.608 E67.75778
G1 X243.462 Y253.738 E67.77519
G1 X243.093 Y253.822 E67.78778
G1 X241.912 Y254.018 E67.8276
G1 X241.706 Y254.04 E67.83449
G1 X241.292 Y254.076 E67.84831
G1 X240.927 Y254.1 E67.86048
G1 X240.435 Y254.12 E67.87685
G1 X239.681 Y254.132 E67.90193
G1 X180.084 Y254.133 E69.88414
G1 X60.456 Y254.132 E73.86298
G1 X60.311 Y254.131 E73.86781
G1 X59.606 Y254.121 E73.89126
G1 X58.948 Y254.09 E73.91317
G1 X58.391 Y254.046 E73.93175
G1 X57.494 Y253.935 E73.96181
G1 X56.842 Y253.803 E73.98394
G1 X56.268 Y253.667 E74.00356
G1 X55.033 Y253.291 E74.04649
G1 X54.836 Y253.217 E74.05349
G1 X54.405 Y253.043 E74.06895
G1 X54.069 Y252.899 E74.08111
G1 X52.994 Y252.362 E74.12108
G1 X52.817 Y252.26 E74.12787
G1 X52.456 Y252.041 E74.14192
G1 X52.151 Y251.848 E74.15392
G1 X51.243 Y251.202 E74.19099
G1 X51.055 Y251.052 E74.19898
G1 X50.66 Y250.72 E74.21615
G1 X50.418 Y250.506 E74.22689
G1 X49.74 Y249.848 E74.25832
G1 X49.601 Y249.7 E74.26507
G1 X49.181 Y249.224 E74.28618
G1 X48.93 Y248.921 E74.29927
G1 X48.29 Y248.06 E74.33495
G1 X48.177 Y247.89 E74.34174
G1 X47.887 Y247.428 E74.35988
G1 X47.697 Y247.106 E74.37232
G1 X47.195 Y246.139 E74.40856
G1 X47.111 Y245.954 E74.41531
G1 X46.916 Y245.497 E74.43184
G1 X46.78 Y245.154 E74.44411
G1 X46.428 Y244.103 E74.48098
G1 X46.374 Y243.907 E74.48774
G1 X46.261 Y243.456 E74.5032
G1 X46.177 Y243.086 E74.51582
G1 X45.981 Y241.906 E74.55561
G1 X45.959 Y241.699 E74.56253
G1 X45.923 Y241.278 E74.57658
G1 X45.899 Y240.906 E74.58898
G1 X45.88 Y240.429 E74.60486
G1 X45.868 Y239.681 E74.62974
G1 X45.868 Y119.915 E78.61317
G1 X45.867 Y60.458 E80.59072
G1 X45.868 Y60.314 E80.59551
G1 X45.878 Y59.604 E80.61913
G1 X45.905 Y58.965 E80.6404
G1 X45.935 Y58.56 E80.65391
G1 X45.96 Y58.299 E80.66263
G1 X46.152 Y57.081 E80.70364
G1 X46.291 Y56.449 E80.72516
G1 X46.668 Y55.151 E80.77012
G1 X46.747 Y54.934 E80.7778
G1 X46.96 Y54.398 E80.79698
G1 X47.103 Y54.065 E80.80904
G1 X47.634 Y53.003 E80.84853
G1 X47.737 Y52.824 E80.8554
G1 X47.952 Y52.467 E80.86926
