;FLAVOR:Marlin
;TIME:967
;Filament used: 0.249477m
;Layer height: 0.2
;MINX:137.545
;MINY:138.132
;MINZ:0.2
;MAXX:162.109
;MAXY:162.72
;MAXZ:15.2
;Generated with Cura_SteamEngine 4.5.0
M140 S70
M105
M190 S70
M104 S210
M105
M109 S210
M82 ;absolute extrusion mode
M201 X500.00 Y500.00 Z100.00 E5000.00 ;Setup machine max acceleration
M203 X500.00 Y500.00 Z10.00 E50.00 ;Setup machine max feedrate
M204 P500.00 R1000.00 T500.00 ;Setup Print/Retract/Travel acceleration
M205 X8.00 Y8.00 Z0.40 E5.00 ;Setup Jerk
M220 S100 ;Reset Feedrate
M221 S100 ;Reset Flowrate

G28 ;Home
M420 S1 Z2 ;Enable ABL using saved Mesh and Fade Height

G92 E0 ;Reset Extruder
G1 Z2.0 F3000 ;Move Z Axis up
G1 X10.1 Y20 Z0.28 F5000.0 ;Move to start position
G1 X10.1 Y200.0 Z0.28 F1500.0 E15 ;Draw the first line
G1 X10.4 Y200.0 Z0.28 F5000.0 ;Move to side a little
G1 X10.4 Y20 Z0.28 F1500.0 E30 ;Draw the second line
G92 E0 ;Reset Extruder
G1 Z2.0 F3000 ;Move Z Axis up

G92 E0
G92 E0
G1 F4800 E-6
;LAYER_COUNT:75
;LAYER:0
M107
G1 F300 Z0.4
G0 F1200 X141.249 Y141.599 Z0.4
;TYPE:SKIRT
G1 F300 Z0.2
G1 F4800 E0
G1 F1200 X141.462 Y141.397 E0.00976
G1 X141.817 Y141.081 E0.02557
G1 X142.034 Y140.899 E0.03499
G1 X142.458 Y140.567 E0.0529
G1 X142.7 Y140.391 E0.06285
G1 X143.225 Y140.041 E0.08384
G1 X143.52 Y139.861 E0.09533
G1 X144.109 Y139.535 E0.11773
G1 X144.503 Y139.339 E0.13236
G1 X145.097 Y139.074 E0.154
G1 X145.321 Y138.985 E0.16201
G1 X145.842 Y138.799 E0.18041
G1 X146.091 Y138.72 E0.1891
G1 X146.481 Y138.608 E0.2026
G1 X146.711 Y138.548 E0.2105
G1 X147.109 Y138.455 E0.2241
G1 X147.357 Y138.404 E0.23252
G1 X148.101 Y138.282 E0.25759
G1 X148.552 Y138.219 E0.27274
G1 X148.808 Y138.191 E0.2813
G1 X149.249 Y138.156 E0.29602
G1 X149.517 Y138.142 E0.30494
G1 X150.041 Y138.132 E0.32238
G1 X150.307 Y138.136 E0.33122
G1 X150.955 Y138.173 E0.35281
G1 X151.381 Y138.215 E0.36705
G1 X152.035 Y138.307 E0.38902
G1 X152.316 Y138.359 E0.39852
G1 X152.883 Y138.486 E0.41785
G1 X153.145 Y138.555 E0.42686
G1 X153.756 Y138.743 E0.44812
G1 X154.127 Y138.874 E0.46121
G1 X154.678 Y139.092 E0.48091
G1 X154.941 Y139.208 E0.49047
G1 X155.59 Y139.531 E0.51459
G1 X155.922 Y139.716 E0.52723
G1 X156.409 Y140.012 E0.54618
G1 X156.657 Y140.175 E0.55605
G1 X157.053 Y140.453 E0.57215
G1 X157.229 Y140.585 E0.57946
G1 X157.631 Y140.908 E0.59661
G1 X157.808 Y141.06 E0.60437
G1 X158.141 Y141.363 E0.61935
G1 X158.31 Y141.526 E0.62716
G1 X158.725 Y141.958 E0.64708
G1 X159.021 Y142.291 E0.6619
G1 X159.459 Y142.831 E0.68503
G1 X159.596 Y143.016 E0.69268
G1 X159.818 Y143.331 E0.7055
G1 X160.018 Y143.633 E0.71755
G1 X160.288 Y144.051 E0.7341
G1 X160.662 Y144.695 E0.75887
G1 X160.862 Y145.081 E0.77333
G1 X161.128 Y145.65 E0.79422
G1 X161.23 Y145.893 E0.80298
G1 X161.46 Y146.514 E0.82501
G1 X161.576 Y146.873 E0.83756
G1 X161.721 Y147.379 E0.85507
G1 X161.782 Y147.623 E0.86343
G1 X161.886 Y148.102 E0.87973
G1 X161.935 Y148.368 E0.88873
G1 X162.012 Y148.879 E0.90592
G1 X162.041 Y149.128 E0.91425
G1 X162.08 Y149.58 E0.92934
G1 X162.096 Y149.857 E0.93857
G1 X162.109 Y150.337 E0.95454
G1 X162.108 Y150.601 E0.96332
G1 X162.082 Y151.209 E0.98356
G1 X162.054 Y151.55 E0.99494
G1 X161.997 Y152.048 E1.01162
G1 X161.958 Y152.313 E1.02053
G1 X161.872 Y152.79 E1.03665
G1 X161.816 Y153.055 E1.04565
G1 X161.706 Y153.508 E1.06116
G1 X161.631 Y153.781 E1.07058
G1 X161.501 Y154.208 E1.08542
G1 X161.416 Y154.46 E1.09427
G1 X161.208 Y155.008 E1.11376
G1 X161.103 Y155.256 E1.12272
G1 X160.935 Y155.626 E1.13624
G1 X160.811 Y155.881 E1.14567
G1 X160.605 Y156.276 E1.16048
G1 X160.477 Y156.505 E1.16921
G1 X160.188 Y156.98 E1.1877
G1 X160.035 Y157.213 E1.19697
G1 X159.794 Y157.559 E1.211
G1 X159.626 Y157.787 E1.22042
G1 X159.31 Y158.188 E1.2374
G1 X159.127 Y158.405 E1.24684
G1 X158.838 Y158.729 E1.26128
G1 X158.655 Y158.923 E1.27015
G1 X158.334 Y159.245 E1.28527
G1 X158.122 Y159.445 E1.29497
G1 X157.731 Y159.79 E1.31231
G1 X157.526 Y159.959 E1.32115
G1 X157.153 Y160.247 E1.33682
G1 X156.918 Y160.418 E1.34649
G1 X156.563 Y160.662 E1.36081
G1 X156.334 Y160.81 E1.36988
G1 X155.981 Y161.025 E1.38363
G1 X155.73 Y161.169 E1.39325
G1 X155.204 Y161.445 E1.41301
G1 X154.95 Y161.566 E1.42237
G1 X154.681 Y161.688 E1.43219
G1 X154.421 Y161.8 E1.44161
G1 X153.842 Y162.022 E1.46223
G1 X153.568 Y162.115 E1.47186
G1 X153.197 Y162.231 E1.48479
G1 X152.923 Y162.309 E1.49426
G1 X152.465 Y162.424 E1.50997
G1 X152.179 Y162.487 E1.51971
G1 X151.747 Y162.57 E1.53434
G1 X151.469 Y162.615 E1.5437
G1 X150.485 Y162.711 E1.57659
G1 X150.217 Y162.72 E1.58551
G1 X149.62 Y162.717 E1.60536
G1 X149.271 Y162.702 E1.61698
G1 X148.729 Y162.659 E1.63507
G1 X148.411 Y162.623 E1.64571
G1 X147.886 Y162.546 E1.66336
G1 X147.563 Y162.487 E1.67428
G1 X146.98 Y162.357 E1.69415
G1 X146.505 Y162.232 E1.71048
G1 X145.844 Y162.026 E1.73351
G1 X145.539 Y161.916 E1.74429
G1 X145.068 Y161.729 E1.76115
G1 X144.779 Y161.603 E1.77164
G1 X144.244 Y161.345 E1.79139
G1 X143.876 Y161.15 E1.80524
G1 X143.476 Y160.923 E1.82054
G1 X143.249 Y160.785 E1.82938
G1 X142.793 Y160.486 E1.84751
G1 X142.56 Y160.321 E1.85701
G1 X142.265 Y160.101 E1.86925
G1 X142.05 Y159.933 E1.87832
G1 X141.759 Y159.694 E1.89085
G1 X141.592 Y159.55 E1.89818
G1 X141.253 Y159.239 E1.91348
G1 X141.047 Y159.039 E1.92303
G1 X140.694 Y158.673 E1.93994
G1 X140.44 Y158.392 E1.95254
G1 X139.94 Y157.781 E1.9788
G1 X139.66 Y157.372 E1.99529
G1 X139.392 Y156.954 E2.0118
G1 X139.027 Y156.322 E2.03608
G1 X138.884 Y156.045 E2.04645
G1 X138.693 Y155.647 E2.06113
G1 X138.576 Y155.385 E2.07067
G1 X138.378 Y154.899 E2.08813
G1 X138.272 Y154.611 E2.09833
G1 X138.093 Y154.062 E2.11754
G1 X137.972 Y153.639 E2.13217
G1 X137.827 Y153.044 E2.15254
G1 X137.769 Y152.758 E2.16225
G1 X137.691 Y152.307 E2.17747
G1 X137.649 Y152.012 E2.18738
G1 X137.599 Y151.568 E2.20224
G1 X137.576 Y151.295 E2.21135
G1 X137.549 Y150.748 E2.22957
G1 X137.545 Y150.46 E2.23915
G1 X137.558 Y149.88 E2.25845
G1 X137.583 Y149.468 E2.27217
G1 X137.634 Y148.937 E2.28992
G1 X137.669 Y148.667 E2.29897
G1 X137.751 Y148.165 E2.31589
G1 X137.809 Y147.87 E2.32589
G1 X137.917 Y147.397 E2.34203
G1 X137.987 Y147.13 E2.35121
G1 X138.13 Y146.65 E2.36786
G1 X138.221 Y146.376 E2.37747
G1 X138.39 Y145.915 E2.3938
G1 X138.503 Y145.635 E2.40384
G1 X138.742 Y145.1 E2.42333
G1 X138.902 Y144.776 E2.43535
G1 X139.186 Y144.254 E2.45511
G1 X139.33 Y144.011 E2.46451
G1 X139.586 Y143.607 E2.48042
G1 X139.755 Y143.358 E2.49043
G1 X140.112 Y142.873 E2.51046
G1 X140.333 Y142.596 E2.52224
G1 X140.692 Y142.177 E2.54059
G1 X140.878 Y141.975 E2.54973
G1 X141.249 Y141.599 E2.56729
G0 X141.524 Y141.89
G1 X141.737 Y141.688 E2.57706
G1 X142.074 Y141.387 E2.59209
G1 X142.291 Y141.205 E2.60151
G1 X142.694 Y140.89 E2.61852
G1 X142.936 Y140.714 E2.62847
G1 X143.434 Y140.382 E2.64838
G1 X143.729 Y140.202 E2.65987
G1 X144.287 Y139.894 E2.68107
G1 X144.681 Y139.698 E2.69571
G1 X145.245 Y139.446 E2.71625
G1 X145.469 Y139.357 E2.72427
G1 X145.963 Y139.18 E2.74172
G1 X146.212 Y139.101 E2.75041
G1 X146.582 Y138.995 E2.76321
G1 X146.812 Y138.935 E2.77112
G1 X147.189 Y138.847 E2.784
G1 X147.437 Y138.796 E2.79242
G1 X148.168 Y138.676 E2.81706
G1 X148.595 Y138.617 E2.83139
G1 X148.851 Y138.589 E2.83996
G1 X149.27 Y138.555 E2.85394
G1 X149.538 Y138.541 E2.86287
G1 X150.035 Y138.532 E2.8794
G1 X150.301 Y138.536 E2.88825
G1 X150.916 Y138.571 E2.90873
G1 X151.342 Y138.613 E2.92297
G1 X151.963 Y138.701 E2.94383
G1 X152.244 Y138.753 E2.95334
G1 X152.782 Y138.873 E2.97167
G1 X153.044 Y138.942 E2.98068
G1 X153.623 Y139.12 E3.00083
G1 X153.994 Y139.251 E3.01392
G1 X154.516 Y139.458 E3.03259
G1 X154.779 Y139.574 E3.04215
G1 X155.395 Y139.881 E3.06505
G1 X155.727 Y140.066 E3.07769
G1 X156.189 Y140.346 E3.09565
G1 X156.437 Y140.509 E3.10553
G1 X156.813 Y140.773 E3.12081
G1 X156.989 Y140.905 E3.12812
G1 X157.37 Y141.211 E3.14438
G1 X157.547 Y141.363 E3.15214
G1 X157.863 Y141.651 E3.16636
G1 X158.032 Y141.814 E3.17417
G1 X158.426 Y142.224 E3.19308
G1 X158.722 Y142.557 E3.2079
G1 X159.138 Y143.069 E3.22984
G1 X159.275 Y143.254 E3.2375
G1 X159.485 Y143.553 E3.24965
G1 X159.682 Y143.85 E3.2615
G1 X159.952 Y144.268 E3.27805
G1 X160.306 Y144.879 E3.30154
G1 X160.506 Y145.265 E3.316
G1 X160.759 Y145.805 E3.33583
G1 X160.861 Y146.048 E3.3446
G1 X161.08 Y146.637 E3.3655
G1 X161.196 Y146.996 E3.37805
G1 X161.333 Y147.476 E3.39465
G1 X161.394 Y147.72 E3.40301
G1 X161.493 Y148.174 E3.41847
G1 X161.542 Y148.44 E3.42747
G1 X161.614 Y148.925 E3.44377
G1 X161.643 Y149.174 E3.45211
G1 X161.681 Y149.603 E3.46644
G1 X161.697 Y149.88 E3.47566
G1 X161.709 Y150.335 E3.4908
G1 X161.708 Y150.599 E3.49958
G1 X161.683 Y151.177 E3.51883
G1 X161.655 Y151.518 E3.53021
G1 X161.601 Y151.989 E3.54597
G1 X161.562 Y152.254 E3.55488
G1 X161.481 Y152.707 E3.57019
G1 X161.425 Y152.972 E3.5792
G1 X161.321 Y153.402 E3.59391
G1 X161.246 Y153.675 E3.60333
G1 X161.122 Y154.08 E3.61741
G1 X161.037 Y154.332 E3.62626
G1 X160.839 Y154.852 E3.64477
G1 X160.734 Y155.1 E3.65372
G1 X160.575 Y155.451 E3.66654
G1 X160.451 Y155.706 E3.67597
G1 X160.255 Y156.081 E3.69004
G1 X160.127 Y156.31 E3.69877
G1 X159.854 Y156.761 E3.71631
G1 X159.701 Y156.994 E3.72558
G1 X159.472 Y157.322 E3.73888
G1 X159.304 Y157.55 E3.7483
G1 X159.004 Y157.931 E3.76443
G1 X158.821 Y158.148 E3.77387
G1 X158.547 Y158.455 E3.78756
G1 X158.364 Y158.649 E3.79643
G1 X158.059 Y158.954 E3.81077
G1 X157.847 Y159.154 E3.82047
G1 X157.476 Y159.481 E3.83692
G1 X157.271 Y159.65 E3.84575
G1 X156.918 Y159.924 E3.86062
G1 X156.683 Y160.095 E3.87028
G1 X156.346 Y160.326 E3.88387
G1 X156.117 Y160.474 E3.89294
G1 X155.782 Y160.678 E3.90599
G1 X155.531 Y160.822 E3.91561
G1 X155.032 Y161.084 E3.93436
G1 X154.778 Y161.205 E3.94371
G1 X154.263 Y161.432 E3.96243
G1 X153.713 Y161.643 E3.98202
G1 X153.439 Y161.736 E3.99165
G1 X153.087 Y161.846 E4.00391
G1 X152.813 Y161.924 E4.01339
G1 X152.379 Y162.034 E4.02828
G1 X152.093 Y162.097 E4.03802
G1 X151.683 Y162.175 E4.0519
G1 X151.405 Y162.22 E4.06127
G1 X150.471 Y162.311 E4.09248
G1 X150.203 Y162.32 E4.1014
G1 X149.637 Y162.317 E4.12023
G1 X149.288 Y162.302 E4.13184
G1 X148.774 Y162.262 E4.14899
G1 X148.456 Y162.226 E4.15964
G1 X147.958 Y162.153 E4.17638
G1 X147.635 Y162.094 E4.1873
G1 X147.082 Y161.97 E4.20615
G1 X146.607 Y161.845 E4.22248
G1 X145.979 Y161.65 E4.24435
G1 X145.674 Y161.54 E4.25514
G1 X145.228 Y161.362 E4.27111
G1 X144.939 Y161.236 E4.2816
G1 X144.431 Y160.992 E4.30034
G1 X144.063 Y160.797 E4.31419
G1 X143.684 Y160.581 E4.3287
G1 X143.457 Y160.443 E4.33754
G1 X143.024 Y160.159 E4.35476
G1 X142.791 Y159.994 E4.36426
G1 X142.512 Y159.786 E4.37583
G1 X142.297 Y159.618 E4.38491
G1 X142.021 Y159.391 E4.39679
G1 X141.854 Y159.247 E4.40413
G1 X141.531 Y158.952 E4.41868
G1 X141.325 Y158.752 E4.42822
G1 X140.99 Y158.405 E4.44427
G1 X140.736 Y158.124 E4.45687
G1 X140.251 Y157.528 E4.48242
G1 X139.996 Y157.156 E4.49742
G1 X139.728 Y156.738 E4.51394
G1 X139.383 Y156.139 E4.53693
G1 X139.24 Y155.862 E4.5473
G1 X139.058 Y155.484 E4.56125
G1 X138.941 Y155.222 E4.57079
G1 X138.753 Y154.761 E4.58735
G1 X138.647 Y154.473 E4.59756
G1 X138.477 Y153.952 E4.61579
G1 X138.356 Y153.529 E4.63042
G1 X138.219 Y152.965 E4.64973
G1 X138.161 Y152.679 E4.65943
G1 X138.087 Y152.251 E4.67388
G1 X138.045 Y151.956 E4.68379
G1 X137.997 Y151.534 E4.69792
G1 X137.974 Y151.261 E4.70703
G1 X137.949 Y150.743 E4.72428
G1 X137.945 Y150.455 E4.73386
G1 X137.958 Y149.904 E4.75219
G1 X137.983 Y149.492 E4.76592
G1 X138.03 Y148.989 E4.78272
G1 X138.065 Y148.719 E4.79177
G1 X138.143 Y148.242 E4.80785
G1 X138.201 Y147.947 E4.81785
G1 X138.304 Y147.498 E4.83317
G1 X138.374 Y147.231 E4.84235
G1 X138.509 Y146.776 E4.85814
G1 X138.6 Y146.502 E4.86774
G1 X138.761 Y146.065 E4.88323
G1 X138.874 Y145.785 E4.89327
G1 X139.101 Y145.277 E4.91178
G1 X139.261 Y144.953 E4.9238
G1 X139.53 Y144.457 E4.94256
G1 X139.674 Y144.214 E4.95196
G1 X139.917 Y143.831 E4.96705
G1 X140.086 Y143.582 E4.97705
G1 X140.424 Y143.123 E4.99601
G1 X140.645 Y142.846 E5.0078
G1 X140.986 Y142.448 E5.02523
G1 X141.172 Y142.246 E5.03436
G1 X141.524 Y141.89 E5.05102
G0 X141.799 Y142.18
G1 X142.012 Y141.978 E5.06078
G1 X142.331 Y141.694 E5.07498
G1 X142.548 Y141.512 E5.0844
G1 X142.929 Y141.214 E5.10049
G1 X143.171 Y141.038 E5.11044
G1 X143.642 Y140.724 E5.12927
G1 X143.937 Y140.544 E5.14077
G1 X144.465 Y140.252 E5.16083
G1 X144.859 Y140.056 E5.17547
G1 X145.392 Y139.818 E5.19489
G1 X145.616 Y139.729 E5.2029
G1 X146.084 Y139.562 E5.21943
G1 X146.333 Y139.483 E5.22812
G1 X146.683 Y139.382 E5.24023
G1 X146.913 Y139.322 E5.24814
G1 X147.27 Y139.238 E5.26034
G1 X147.518 Y139.187 E5.26876
G1 X148.234 Y139.071 E5.29288
G1 X148.639 Y139.014 E5.30649
G1 X148.895 Y138.986 E5.31505
G1 X149.291 Y138.955 E5.32826
G1 X149.559 Y138.941 E5.33719
G1 X150.029 Y138.932 E5.35282
G1 X150.295 Y138.936 E5.36167
G1 X150.877 Y138.969 E5.38106
G1 X151.303 Y139.011 E5.3953
G1 X151.89 Y139.094 E5.41502
G1 X152.171 Y139.146 E5.42452
G1 X152.68 Y139.26 E5.44187
G1 X152.942 Y139.329 E5.45088
G1 X153.49 Y139.497 E5.46995
G1 X153.861 Y139.628 E5.48303
G1 X154.355 Y139.824 E5.50071
G1 X154.618 Y139.94 E5.51027
G1 X155.2 Y140.23 E5.5319
G1 X155.532 Y140.415 E5.54454
G1 X155.97 Y140.68 E5.56156
G1 X156.218 Y140.843 E5.57143
G1 X156.573 Y141.093 E5.58588
G1 X156.749 Y141.225 E5.59319
G1 X157.109 Y141.514 E5.60855
G1 X157.286 Y141.666 E5.61631
G1 X157.586 Y141.939 E5.6298
G1 X157.755 Y142.102 E5.63761
G1 X158.127 Y142.489 E5.65546
G1 X158.423 Y142.822 E5.67028
G1 X158.816 Y143.307 E5.69104
G1 X158.953 Y143.492 E5.6987
G1 X159.152 Y143.775 E5.71021
G1 X159.346 Y144.067 E5.72187
G1 X159.616 Y144.485 E5.73842
G1 X159.951 Y145.063 E5.76064
G1 X160.151 Y145.449 E5.7751
G1 X160.39 Y145.96 E5.79386
G1 X160.492 Y146.203 E5.80262
G1 X160.699 Y146.76 E5.82239
G1 X160.815 Y147.119 E5.83494
G1 X160.945 Y147.573 E5.85064
G1 X161.006 Y147.817 E5.85901
G1 X161.099 Y148.247 E5.87364
G1 X161.148 Y148.513 E5.88264
G1 X161.217 Y148.971 E5.89804
G1 X161.246 Y149.22 E5.90638
G1 X161.281 Y149.626 E5.91993
G1 X161.297 Y149.903 E5.92916
G1 X161.309 Y150.334 E5.9435
G1 X161.308 Y150.598 E5.95228
G1 X161.285 Y151.144 E5.97046
G1 X161.257 Y151.485 E5.98184
G1 X161.205 Y151.931 E5.99677
G1 X161.166 Y152.196 E6.00568
G1 X161.09 Y152.624 E6.02014
G1 X161.034 Y152.889 E6.02915
G1 X160.935 Y153.296 E6.04308
G1 X160.86 Y153.569 E6.0525
G1 X160.743 Y153.952 E6.06582
G1 X160.658 Y154.204 E6.07466
G1 X160.471 Y154.696 E6.09217
G1 X160.366 Y154.944 E6.10113
G1 X160.215 Y155.276 E6.11326
G1 X160.091 Y155.531 E6.12269
G1 X159.906 Y155.885 E6.13597
G1 X159.778 Y156.114 E6.1447
G1 X159.519 Y156.541 E6.16131
G1 X159.366 Y156.774 E6.17058
G1 X159.15 Y157.084 E6.18315
G1 X158.982 Y157.312 E6.19257
G1 X158.698 Y157.673 E6.20784
G1 X158.515 Y157.89 E6.21729
G1 X158.256 Y158.18 E6.23022
G1 X158.073 Y158.374 E6.23909
G1 X157.785 Y158.663 E6.25266
G1 X157.573 Y158.863 E6.26235
G1 X157.222 Y159.172 E6.27791
G1 X157.017 Y159.341 E6.28674
G1 X156.683 Y159.6 E6.3008
G1 X156.448 Y159.771 E6.31047
G1 X156.129 Y159.99 E6.32334
G1 X155.9 Y160.138 E6.3324
G1 X155.583 Y160.331 E6.34475
G1 X155.332 Y160.475 E6.35437
G1 X154.86 Y160.723 E6.37211
G1 X154.606 Y160.844 E6.38146
G1 X154.104 Y161.065 E6.39971
G1 X153.585 Y161.265 E6.41821
G1 X153.311 Y161.358 E6.42783
G1 X152.978 Y161.462 E6.43943
G1 X152.704 Y161.54 E6.44891
G1 X152.293 Y161.643 E6.463
G1 X152.007 Y161.706 E6.47274
G1 X151.62 Y161.78 E6.48585
G1 X151.342 Y161.825 E6.49521
G1 X150.458 Y161.911 E6.52475
G1 X150.19 Y161.92 E6.53367
G1 X149.654 Y161.918 E6.5515
G1 X149.305 Y161.903 E6.56312
G1 X148.819 Y161.865 E6.57933
G1 X148.501 Y161.829 E6.58998
G1 X148.03 Y161.759 E6.60581
G1 X147.707 Y161.7 E6.61674
G1 X147.184 Y161.584 E6.63455
G1 X146.709 Y161.459 E6.65089
G1 X146.115 Y161.274 E6.67158
G1 X145.81 Y161.164 E6.68237
G1 X145.387 Y160.996 E6.6975
G1 X145.098 Y160.87 E6.70799
G1 X144.618 Y160.638 E6.72572
G1 X144.25 Y160.443 E6.73957
G1 X143.892 Y160.239 E6.75328
G1 X143.665 Y160.101 E6.76211
G1 X143.256 Y159.833 E6.77838
G1 X143.023 Y159.668 E6.78787
G1 X142.758 Y159.471 E6.79886
G1 X142.543 Y159.303 E6.80793
G1 X142.115 Y158.944 E6.82651
G1 X141.81 Y158.665 E6.84026
