;FLAVOR:Marlin
;TIME:996
;Filament used: 0.536947m
;Layer height: 0.2
;MINX:134.093
;MINY:133.667
;MINZ:0.2
;MAXX:165.907
;MAXY:166.333
;MAXZ:10.2
;Generated with Cura_SteamEngine 4.5.0
M140 S70
M105
M190 S70
M104 S210
M105
M109 S210
M82 ;absolute extrusion mode
M201 X500.00 Y500.00 Z100.00 E5000.00 ;Setup machine max acceleration
M203 X500.00 Y500.00 Z10.00 E50.00 ;Setup machine max feedrate
M204 P500.00 R1000.00 T500.00 ;Setup Print/Retract/Travel acceleration
M205 X8.00 Y8.00 Z0.40 E5.00 ;Setup Jerk
M220 S100 ;Reset Feedrate
M221 S100 ;Reset Flowrate

G28 ;Home
M420 S1 Z2 ;Enable ABL using saved Mesh and Fade Height

G92 E0 ;Reset Extruder
G1 Z2.0 F3000 ;Move Z Axis up
G1 X10.1 Y20 Z0.28 F5000.0 ;Move to start position
G1 X10.1 Y200.0 Z0.28 F1500.0 E15 ;Draw the first line
G1 X10.4 Y200.0 Z0.28 F5000.0 ;Move to side a little
G1 X10.4 Y20 Z0.28 F1500.0 E30 ;Draw the second line
G92 E0 ;Reset Extruder
G1 Z2.0 F3000 ;Move Z Axis up

G92 E0
G92 E0
G1 F4800 E-6
;LAYER_COUNT:50
;LAYER:0
M107
G1 F300 Z0.4
G0 F1200 X137.73 Y139.05 Z0.4
;TYPE:SKIRT
G1 F300 Z0.2
G1 F4800 E0
G1 F1200 X138.309 Y138.513 E0.02627
G1 X138.94 Y138.038 E0.05253
G1 X139.615 Y137.629 E0.07878
G1 X140.578 Y137.192 E0.11396
G1 X148.689 Y134.154 E0.40203
G1 X149.442 Y133.914 E0.42832
G1 X150.215 Y133.752 E0.45459
G1 X151 Y133.67 E0.48084
G1 X151.79 Y133.667 E0.50711
G1 X152.576 Y133.743 E0.53338
G1 X153.35 Y133.899 E0.55964
G1 X154.104 Y134.133 E0.5859
G1 X154.831 Y134.441 E0.61216
G1 X155.523 Y134.821 E0.63842
G1 X156.383 Y135.436 E0.67358
G1 X163.068 Y140.94 E0.96159
G1 X163.651 Y141.473 E0.98786
G1 X164.178 Y142.061 E1.01413
G1 X164.642 Y142.7 E1.04039
G1 X165.04 Y143.382 E1.06665
G1 X165.366 Y144.101 E1.09291
G1 X165.618 Y144.849 E1.11916
G1 X165.794 Y145.619 E1.14544
G1 X165.89 Y146.403 E1.17171
G1 X165.907 Y147.193 E1.19799
G1 X165.804 Y148.245 E1.23314
G1 X164.38 Y156.787 E1.52117
G1 X164.211 Y157.558 E1.54743
G1 X163.964 Y158.308 E1.57369
G1 X163.644 Y159.03 E1.59996
G1 X163.251 Y159.715 E1.62622
G1 X162.792 Y160.358 E1.6525
G1 X162.27 Y160.95 E1.67875
G1 X161.691 Y161.487 E1.70501
G1 X161.06 Y161.962 E1.73128
G1 X160.385 Y162.371 E1.75753
G1 X159.422 Y162.808 E1.79271
G1 X151.304 Y165.849 E2.08104
G1 X150.551 Y166.087 E2.1073
G1 X149.778 Y166.249 E2.13357
G1 X148.993 Y166.331 E2.15982
G1 X148.203 Y166.333 E2.1861
G1 X147.417 Y166.256 E2.21236
G1 X146.643 Y166.099 E2.23863
G1 X145.889 Y165.865 E2.26489
G1 X145.162 Y165.556 E2.29116
G1 X144.471 Y165.175 E2.31741
G1 X143.617 Y164.564 E2.35233
G1 X136.932 Y159.06 E2.64034
G1 X136.349 Y158.527 E2.66662
G1 X135.822 Y157.939 E2.69288
G1 X135.358 Y157.3 E2.71914
G1 X134.96 Y156.618 E2.74541
G1 X134.634 Y155.899 E2.77166
G1 X134.382 Y155.151 E2.79792
G1 X134.206 Y154.381 E2.82419
G1 X134.11 Y153.597 E2.85046
G1 X134.093 Y152.807 E2.87674
G1 X134.196 Y151.755 E2.9119
G1 X135.62 Y143.213 E3.19993
G1 X135.789 Y142.442 E3.22618
G1 X136.036 Y141.692 E3.25244
G1 X136.356 Y140.97 E3.27871
G1 X136.749 Y140.285 E3.30497
G1 X137.208 Y139.642 E3.33125
G1 X137.73 Y139.05 E3.3575
G0 X138.101 Y139.244
G1 X138.674 Y138.731 E3.38308
G1 X139.298 Y138.281 E3.40867
G1 X139.964 Y137.897 E3.43424
G1 X140.718 Y137.566 E3.46163
G1 X148.829 Y134.528 E3.7497
G1 X149.563 Y134.296 E3.77531
G1 X150.316 Y134.142 E3.80087
G1 X151.082 Y134.066 E3.82647
G1 X151.851 Y134.07 E3.85205
G1 X152.615 Y134.154 E3.87761
G1 X153.367 Y134.317 E3.90321
G1 X154.098 Y134.558 E3.92881
G1 X154.8 Y134.872 E3.95438
G1 X155.465 Y135.258 E3.97996
G1 X156.129 Y135.745 E4.00735
G1 X162.814 Y141.249 E4.29536
G1 X163.381 Y141.768 E4.32092
G1 X163.892 Y142.343 E4.34651
G1 X164.34 Y142.969 E4.37211
G1 X164.721 Y143.637 E4.39769
G1 X165.03 Y144.341 E4.42326
G1 X165.265 Y145.073 E4.44883
G1 X165.422 Y145.826 E4.47441
G1 X165.501 Y146.591 E4.49999
G1 X165.499 Y147.361 E4.5256
G1 X165.409 Y148.179 E4.55297
G1 X163.985 Y156.721 E4.841
G1 X163.82 Y157.472 E4.86658
G1 X163.577 Y158.202 E4.89217
G1 X163.259 Y158.902 E4.91774
G1 X162.871 Y159.566 E4.94332
G1 X162.416 Y160.186 E4.9689
G1 X161.899 Y160.756 E4.99449
G1 X161.326 Y161.269 E5.02007
G1 X160.702 Y161.719 E5.04566
G1 X160.036 Y162.103 E5.07123
G1 X159.282 Y162.434 E5.09862
G1 X151.164 Y165.474 E5.38693
G1 X150.431 Y165.706 E5.4125
G1 X149.677 Y165.859 E5.43809
G1 X148.912 Y165.934 E5.46366
G1 X148.142 Y165.929 E5.48927
G1 X147.378 Y165.845 E5.51483
G1 X146.626 Y165.681 E5.54043
G1 X145.896 Y165.44 E5.566
G1 X145.194 Y165.125 E5.59159
G1 X144.529 Y164.738 E5.61718
G1 X143.871 Y164.255 E5.64433
G1 X137.186 Y158.751 E5.93234
G1 X136.619 Y158.232 E5.95791
G1 X136.108 Y157.657 E5.98349
G1 X135.66 Y157.031 E6.0091
G1 X135.279 Y156.363 E6.03467
G1 X134.97 Y155.659 E6.06025
G1 X134.735 Y154.927 E6.08582
G1 X134.578 Y154.174 E6.1114
G1 X134.499 Y153.409 E6.13698
G1 X134.501 Y152.639 E6.16259
G1 X134.591 Y151.821 E6.18996
G1 X136.015 Y143.279 E6.47799
G1 X136.18 Y142.528 E6.50356
G1 X136.423 Y141.798 E6.52915
G1 X136.741 Y141.098 E6.55472
G1 X137.129 Y140.434 E6.5803
G1 X137.584 Y139.814 E6.60588
G1 X138.101 Y139.244 E6.63148
G0 X138.471 Y139.442
G1 X139.038 Y138.954 E6.65636
G1 X139.654 Y138.529 E6.68125
G1 X140.311 Y138.173 E6.7061
G1 X140.859 Y137.941 E6.7259
G1 X148.97 Y134.903 E7.01397
G1 X149.683 Y134.678 E7.03884
G1 X150.417 Y134.531 E7.06374
G1 X151.162 Y134.463 E7.08862
G1 X151.91 Y134.475 E7.1135
G1 X152.652 Y134.566 E7.13836
G1 X153.381 Y134.737 E7.16327
G1 X154.087 Y134.984 E7.18815
G1 X154.762 Y135.305 E7.21301
G1 X155.4 Y135.696 E7.23789
G1 X155.874 Y136.054 E7.25765
G1 X162.559 Y141.558 E7.54566
G1 X163.111 Y142.064 E7.57057
G1 X163.605 Y142.625 E7.59543
G1 X164.036 Y143.236 E7.6203
G1 X164.4 Y143.89 E7.64519
G1 X164.692 Y144.579 E7.67008
G1 X164.909 Y145.295 E7.69496
G1 X165.048 Y146.03 E7.71984
G1 X165.108 Y146.775 E7.7447
G1 X165.087 Y147.523 E7.76959
G1 X165.015 Y148.113 E7.78936
G1 X163.591 Y156.655 E8.07739
G1 X163.428 Y157.385 E8.10227
G1 X163.189 Y158.094 E8.12715
G1 X162.876 Y158.773 E8.15202
G1 X162.491 Y159.415 E8.17692
G1 X162.041 Y160.012 E8.20178
G1 X161.529 Y160.558 E8.22668
G1 X160.962 Y161.046 E8.25156
G1 X160.346 Y161.471 E8.27645
G1 X159.689 Y161.827 E8.30131
G1 X159.141 Y162.059 E8.3211
G1 X151.024 Y165.1 E8.6094
G1 X150.31 Y165.323 E8.63427
G1 X149.577 Y165.47 E8.65914
G1 X148.832 Y165.537 E8.68402
G1 X148.084 Y165.525 E8.7089
G1 X147.342 Y165.432 E8.73377
G1 X146.613 Y165.261 E8.75868
G1 X145.907 Y165.014 E8.78355
G1 X145.232 Y164.692 E8.80843
G1 X144.595 Y164.3 E8.83331
G1 X144.126 Y163.946 E8.85285
G1 X137.441 Y158.442 E9.14086
G1 X136.889 Y157.936 E9.16576
G1 X136.395 Y157.375 E9.19063
G1 X135.964 Y156.764 E9.2155
G1 X135.6 Y156.11 E9.24039
G1 X135.308 Y155.421 E9.26528
G1 X135.091 Y154.705 E9.29016
G1 X134.952 Y153.97 E9.31504
G1 X134.892 Y153.225 E9.3399
G1 X134.913 Y152.477 E9.36479
G1 X134.985 Y151.887 E9.38456
G1 X136.409 Y143.345 E9.67259
G1 X136.572 Y142.615 E9.69747
G1 X136.811 Y141.906 E9.72235
G1 X137.124 Y141.227 E9.74722
G1 X137.509 Y140.585 E9.77212
G1 X137.959 Y139.988 E9.79698
G1 X138.471 Y139.442 E9.82188
G0 X138.84 Y139.644
G1 X139.4 Y139.182 E9.84602
G1 X140.008 Y138.784 E9.87019
G1 X140.655 Y138.455 E9.89433
G1 X140.999 Y138.315 E9.90669
G1 X149.11 Y135.277 E10.19476
G1 X149.803 Y135.06 E10.21892
G1 X150.516 Y134.921 E10.24308
G1 X151.24 Y134.861 E10.26724
G1 X151.966 Y134.88 E10.29139
G1 X152.686 Y134.979 E10.31557
G1 X153.39 Y135.157 E10.33972
G1 X154.07 Y135.411 E10.36386
G1 X154.719 Y135.739 E10.38805
G1 X155.327 Y136.135 E10.41218
G1 X155.62 Y136.363 E10.42453
G1 X162.305 Y141.867 E10.71254
G1 X162.84 Y142.359 E10.73671
G1 X163.317 Y142.906 E10.76085
G1 X163.731 Y143.503 E10.78502
G1 X164.077 Y144.142 E10.80918
G1 X164.351 Y144.814 E10.83332
G1 X164.549 Y145.513 E10.85749
G1 X164.669 Y146.229 E10.88163
G1 X164.71 Y146.955 E10.90582
G1 X164.671 Y147.68 E10.92997
G1 X164.62 Y148.047 E10.94229
G1 X163.196 Y156.589 E11.23032
G1 X163.037 Y157.298 E11.25449
G1 X162.802 Y157.985 E11.27864
G1 X162.492 Y158.642 E11.3028
G1 X162.112 Y159.261 E11.32696
G1 X161.666 Y159.835 E11.35113
G1 X161.16 Y160.356 E11.37529
G1 X160.6 Y160.818 E11.39943
G1 X159.992 Y161.216 E11.4236
G1 X159.345 Y161.545 E11.44775
G1 X159.001 Y161.685 E11.4601
G1 X150.884 Y164.725 E11.74838
G1 X150.191 Y164.941 E11.77253
G1 X149.478 Y165.08 E11.79669
G1 X148.754 Y165.14 E11.82085
G1 X148.028 Y165.119 E11.84501
G1 X147.308 Y165.019 E11.86918
G1 X146.604 Y164.841 E11.89334
G1 X145.924 Y164.586 E11.91749
G1 X145.276 Y164.258 E11.94165
G1 X144.668 Y163.861 E11.9658
G1 X144.38 Y163.637 E11.97793
G1 X137.695 Y158.133 E12.26594
G1 X137.16 Y157.641 E12.29012
G1 X136.683 Y157.094 E12.31426
G1 X136.269 Y156.497 E12.33842
G1 X135.923 Y155.858 E12.36259
G1 X135.649 Y155.186 E12.38673
G1 X135.451 Y154.487 E12.41089
G1 X135.331 Y153.771 E12.43504
G1 X135.29 Y153.045 E12.45922
G1 X135.329 Y152.32 E12.48337
G1 X135.38 Y151.953 E12.49569
G1 X136.804 Y143.411 E12.78372
G1 X136.963 Y142.702 E12.80789
G1 X137.198 Y142.015 E12.83204
G1 X137.508 Y141.358 E12.8562
G1 X137.888 Y140.739 E12.88036
G1 X138.334 Y140.165 E12.90454
G1 X138.84 Y139.644 E12.92869
G0 X138.707 Y140.347
G1 X139.207 Y139.851 E12.95212
G1 X139.76 Y139.415 E12.97554
G1 X140.359 Y139.045 E12.99896
G1 X141.139 Y138.69 E13.02746
G1 X149.25 Y135.652 E13.31554
G1 X149.923 Y135.443 E13.33897
G1 X150.614 Y135.311 E13.36237
G1 X151.316 Y135.259 E13.38579
G1 X152.02 Y135.287 E13.40922
G1 X152.715 Y135.394 E13.43261
G1 X153.395 Y135.579 E13.45605
G1 X154.048 Y135.84 E13.47944
G1 X154.668 Y136.174 E13.50286
G1 X155.366 Y136.672 E13.53138
G1 X162.051 Y142.176 E13.81939
G1 X162.568 Y142.653 E13.84278
G1 X163.028 Y143.186 E13.8662
G1 X163.424 Y143.768 E13.88961
G1 X163.752 Y144.391 E13.91303
G1 X164.007 Y145.047 E13.93644
G1 X164.186 Y145.728 E13.95986
G1 X164.287 Y146.425 E13.98328
G1 X164.308 Y147.129 E14.00671
G1 X164.226 Y147.982 E14.03521
G1 X162.802 Y156.524 E14.32324
G1 X162.647 Y157.21 E14.34663
G1 X162.415 Y157.875 E14.37006
G1 X162.109 Y158.509 E14.39347
G1 X161.733 Y159.104 E14.41688
G1 X161.293 Y159.653 E14.44028
G1 X160.793 Y160.149 E14.46371
G1 X160.24 Y160.585 E14.48713
G1 X159.641 Y160.955 E14.51055
G1 X158.861 Y161.31 E14.53905
G1 X150.744 Y164.35 E14.82733
G1 X150.072 Y164.559 E14.85074
G1 X149.38 Y164.689 E14.87416
G1 X148.678 Y164.741 E14.89757
G1 X147.975 Y164.713 E14.92097
G1 X147.279 Y164.605 E14.9444
G1 X146.6 Y164.419 E14.96781
G1 X145.947 Y164.157 E14.99122
G1 X145.327 Y163.823 E15.01464
G1 X144.634 Y163.328 E15.04296
G1 X137.949 Y157.824 E15.33097
G1 X137.432 Y157.347 E15.35437
G1 X136.972 Y156.814 E15.37779
G1 X136.576 Y156.232 E15.4012
G1 X136.248 Y155.609 E15.42462
G1 X135.993 Y154.953 E15.44803
G1 X135.814 Y154.272 E15.47145
G1 X135.713 Y153.575 E15.49487
G1 X135.692 Y152.871 E15.5183
G1 X135.774 Y152.018 E15.5468
G1 X137.198 Y143.476 E15.83483
G1 X137.353 Y142.79 E15.85822
G1 X137.585 Y142.125 E15.88164
G1 X137.891 Y141.491 E15.90506
G1 X138.267 Y140.896 E15.92847
G1 X138.707 Y140.347 E15.95187
G0 X139.08 Y140.532
G1 X139.574 Y140.063 E15.97453
G1 X140.119 Y139.655 E15.99717
G1 X140.708 Y139.314 E16.01981
G1 X141.28 Y139.064 E16.04057
G1 X149.391 Y136.026 E16.32864
G1 X150.041 Y135.826 E16.35126
G1 X150.711 Y135.702 E16.37392
G1 X151.39 Y135.658 E16.39656
G1 X152.07 Y135.694 E16.4192
G1 X152.741 Y135.809 E16.44185
G1 X153.394 Y136.002 E16.4645
G1 X154.02 Y136.271 E16.48716
G1 X154.61 Y136.611 E16.50981
G1 X155.112 Y136.98 E16.53053
G1 X161.797 Y142.484 E16.81854
G1 X162.296 Y142.947 E16.84118
G1 X162.738 Y143.465 E16.86383
G1 X163.115 Y144.032 E16.88647
G1 X163.424 Y144.639 E16.90913
G1 X163.66 Y145.277 E16.93175
G1 X163.819 Y145.939 E16.9544
G1 X163.9 Y146.616 E16.97707
G1 X163.9 Y147.296 E16.99969
G1 X163.831 Y147.916 E17.02044
G1 X162.407 Y156.458 E17.30847
G1 X162.256 Y157.122 E17.33112
G1 X162.028 Y157.763 E17.35374
G1 X161.726 Y158.374 E17.37641
G1 X161.355 Y158.945 E17.39906
G1 X160.92 Y159.468 E17.42169
G1 X160.426 Y159.937 E17.44434
G1 X159.881 Y160.345 E17.46699
G1 X159.292 Y160.686 E17.48962
G1 X158.72 Y160.935 E17.51037
G1 X150.604 Y163.975 E17.79863
G1 X149.954 Y164.176 E17.82126
G1 X149.284 Y164.299 E17.84391
G1 X148.604 Y164.342 E17.86657
G1 X147.924 Y164.305 E17.88923
G1 X147.254 Y164.189 E17.91184
G1 X146.601 Y163.996 E17.93449
G1 X145.975 Y163.727 E17.95715
G1 X145.386 Y163.386 E17.97979
G1 X144.888 Y163.02 E18.00034
G1 X138.203 Y157.516 E18.28835
G1 X137.704 Y157.053 E18.31099
G1 X137.262 Y156.535 E18.33364
G1 X136.885 Y155.968 E18.35629
G1 X136.576 Y155.361 E18.37894
G1 X136.34 Y154.723 E18.40157
G1 X136.181 Y154.061 E18.42421
G1 X136.1 Y153.384 E18.44689
G1 X136.1 Y152.704 E18.46951
G1 X136.169 Y152.084 E18.49025
G1 X137.593 Y143.542 E18.77828
G1 X137.744 Y142.878 E18.80093
G1 X137.972 Y142.237 E18.82356
G1 X138.274 Y141.626 E18.84623
G1 X138.645 Y141.055 E18.86888
G1 X139.08 Y140.532 E18.8915
G0 X139.452 Y140.722
G1 X139.939 Y140.281 E18.91335
G1 X140.476 Y139.902 E18.93522
G1 X141.054 Y139.591 E18.95705
G1 X141.42 Y139.439 E18.97023
G1 X149.531 Y136.401 E19.2583
G1 X150.159 Y136.208 E19.28015
G1 X150.806 Y136.094 E19.30201
G1 X151.462 Y136.058 E19.32386
G1 X152.117 Y136.103 E19.34569
G1 X152.763 Y136.226 E19.36757
G1 X153.388 Y136.427 E19.3894
G1 X153.984 Y136.703 E19.41125
G1 X154.543 Y137.049 E19.43311
G1 X154.857 Y137.289 E19.44626
G1 X161.542 Y142.793 E19.73427
G1 X162.023 Y143.241 E19.75613
G1 X162.446 Y143.744 E19.77799
G1 X162.805 Y144.294 E19.79983
G1 X163.094 Y144.884 E19.82168
G1 X163.31 Y145.504 E19.84352
G1 X163.448 Y146.147 E19.86539
G1 X163.508 Y146.801 E19.88724
G1 X163.487 Y147.458 E19.9091
G1 X163.436 Y147.85 E19.92225
G1 X162.012 Y156.392 E20.21028
G1 X161.865 Y157.032 E20.23212
G1 X161.641 Y157.65 E20.25398
G1 X161.344 Y158.236 E20.27583
G1 X160.978 Y158.781 E20.29767
G1 X160.548 Y159.278 E20.31953
G1 X160.061 Y159.719 E20.34138
G1 X159.524 Y160.098 E20.36324
G1 X158.946 Y160.409 E20.38507
G1 X158.58 Y160.561 E20.39825
G1 X150.464 Y163.601 E20.68651
G1 X149.836 Y163.793 E20.70835
G1 X149.189 Y163.907 E20.7302
G1 X148.533 Y163.942 E20.75205
G1 X147.878 Y163.897 E20.77388
G1 X147.233 Y163.772 E20.79574
G1 X146.607 Y163.571 E20.8176
G1 X146.011 Y163.295 E20.83945
G1 X145.453 Y162.948 E20.8613
G1 X145.143 Y162.711 E20.87428
G1 X138.458 Y157.207 E21.16229
G1 X137.977 Y156.759 E21.18415
G1 X137.554 Y156.256 E21.20601
G1 X137.195 Y155.706 E21.22786
G1 X136.906 Y155.116 E21.24971
G1 X136.69 Y154.496 E21.27155
G1 X136.552 Y153.853 E21.29342
G1 X136.492 Y153.199 E21.31526
G1 X136.513 Y152.542 E21.33713
G1 X136.564 Y152.15 E21.35027
G1 X137.988 Y143.608 E21.6383
G1 X138.135 Y142.968 E21.66014
G1 X138.359 Y142.35 E21.68201
G1 X138.656 Y141.764 E21.70386
G1 X139.022 Y141.219 E21.72569
G1 X139.452 Y140.722 E21.74755
G0 X139.822 Y140.917
G1 X140.302 Y140.505 E21.76859
G1 X140.829 Y140.157 E21.7896
G1 X141.56 Y139.814 E21.81645
G1 X149.671 Y136.776 E22.10453
G1 X150.276 Y136.592 E22.12556
G1 X150.899 Y136.486 E22.14658
G1 X151.531 Y136.459 E22.16762
G1 X152.161 Y136.512 E22.18865
G1 X152.779 Y136.645 E22.20967
G1 X153.375 Y136.854 E22.23068
G1 X153.941 Y137.137 E22.25173
G1 X154.603 Y137.598 E22.27856
G1 X161.288 Y143.102 E22.56657
G1 X161.75 Y143.534 E22.5876
G1 X162.153 Y144.02 E22.6086
G1 X162.492 Y144.554 E22.62964
G1 X162.761 Y145.126 E22.65066
G1 X162.955 Y145.728 E22.6717
G1 X163.072 Y146.349 E22.69272
G1 X163.11 Y146.98 E22.71374
G1 X163.042 Y147.784 E22.74058
G1 X161.618 Y156.326 E23.02861
G1 X161.475 Y156.942 E23.04964
G1 X161.255 Y157.535 E23.07068
G1 X160.962 Y158.095 E23.0917
G1 X160.601 Y158.614 E23.11273
G1 X160.178 Y159.083 E23.13373
G1 X159.698 Y159.495 E23.15477
G1 X159.171 Y159.843 E23.17578
G1 X158.44 Y160.186 E23.20263
G1 X150.324 Y163.226 E23.49089
G1 X149.719 Y163.409 E23.51191
G1 X149.096 Y163.515 E23.53293
G1 X148.465 Y163.541 E23.55393
G1 X147.835 Y163.487 E23.57497
G1 X147.217 Y163.354 E23.59599
G1 X146.62 Y163.144 E23.61704
G1 X146.055 Y162.861 E23.63806
G1 X145.397 Y162.402 E23.66474
G1 X138.712 Y156.898 E23.95275
G1 X138.25 Y156.466 E23.97379
G1 X137.847 Y155.98 E23.99479
G1 X137.508 Y155.446 E24.01582
G1 X137.239 Y154.874 E24.03685
